!!!!SEGMENT: pl-kk--kk-i-2--047_lukaszewicz-maciej--credo-super-in-natali-domini.krn
!!!cenid: 16xx:1723
!!!COM: Łukaszewicz, Maciej
!!!COM-rismID: pe30097723
!!!CDT: <1668->1680
!!!CNT: Polish
!!!OTL: Credo super In natali Domini
!!!AGN: Sacred; Mass
!!!SMS-siglum: PL-Kk
!!!SMS-shelfmark: Kk.I.2
!!!SMS-shelfwork: 047 W
!!!SMS-variant:
!!!SMS-altvar:
!!!NIFC-rismSourceID: 300258065
!!!NIFC-islandoraID: pl-kk:750
!!!URL-pdf-islandora: https://repozytorium.nifc.pl/islandora/object/pl-kk%3A750/datastream/PDF/view#page=81
!!!URL-scan: https://polish.musicsources.pl/pl/lokalizacje/galeria/rekopisy/5828 @EN{Scan on Polish Music Sources Website} @PL{Skany w portalu Dziedzictwo Muzyki Polskiej w otwartym dostępie}
!!!ONB-nifc: skany: C: 0081-0082; A: 0185-0186; T: 0284-0285; B: 0385-0386
!!!AIN: 1 alto 1 bass 1 soprn 1 tenor
!!!key: g:dor
**kern	**fba	**text	**kern	**text	**kern	**text	**kern	**text
*part4	*part4	*part4	*part3	*part3	*part2	*part2	*part1	*part1
*staff4	*staff4	*staff4	*staff3	*staff3	*staff2	*staff2	*staff1	*staff1
*I"BASVS	*	*	*I"TENOR	*	*I"ALTVS	*	*I"DISCANTVS	*
*I'B	*	*	*I'T	*	*I'A	*	*I'S	*
*Ibass	*	*	*Itenor	*	*Ialto	*	*Isoprn	*
*ICvox	*	*	*ICvox	*	*ICvox	*	*ICvox	*
*clefF4	*	*	*clefC4	*	*clefC3	*	*clefC1	*
*k[b-]	*	*	*k[b-]	*	*k[b-]	*	*k[b-]	*
*g:dor	*	*	*g:dor	*	*g:dor	*	*g:dor	*
*M3/1	*	*	*M3/1	*	*M3/1	*	*M3/1	*
*all\right	*	*	*all\right	*	*all\right	*	*all\right	*
=1	=1	=1	=1	=1	=1	=1	=1	=1
!LO:TX:a:i:t=Noti Mathiae \nLukaſzewic \npro hono(re) P(re)ben\ndari(us?) (...) (...) \nCapellae\nRegiae et M(a)g(ist)ri\nCapellae archid Crac	!	!	!LO:TX:a:i:t=Noti Mathiae Lu\nKaſzewicz pro hono(re?)\nP(re)bendari(us?)  \nPraepho(situs?) Capellae\nRegiae et M(a)g(ist)ri\nCapellae archid(iecesiale) Crac.	!	!	!	!	!
0G	.	Pa-	0d	Pa-	0g	Pa-	0b-	Pa-
1D	.	-trem	1d	-trem	1f#X	-trem	1a	-trem
=2	=2	=2	=2	=2	=2	=2	=2	=2
1.G	.	o-	0d	om-	0g	Om-	0b-	om-
*2\right	*	*	*	*	*	*	*	*
2A\	.	.	.	.	.	.	.	.
1B-	.	.	1B-	-ni-	1f	-ni-	1dd	-ni-
=3	=3	=3	=3	=3	=3	=3	=3	=3
1F	.	-mni-	0A	-po-	1f	-po-	0cc	-po-
1D	.	-po-	.	.	(<1f	-ten-	.	.
!	!	!	!	!	!	!	!LO:N:acc=#	!
1G	.	-ten-	1G	-ten-	1d)	.	1bn	-ten-
=4	=4	=4	=4	=4	=4-	=4	=4	=4
0C	.	-tem	0G	-tem	0e,<	-tem	0cc	-te(m)
1G	.	fac-	1B-	fac-	1g	fac-	1dd	fac-
=5	=5	=5	=5	=5	=5	=5	=5	=5
1.G	.	-to-	1.B-	-to-	1.g	-to-	1.dd	-to-
*	*	*	*2\right	*	*2\right	*	*2\right	*
2G,<\	.	-re(m)	2B-\	-rem	2g\	-re(m)	2dd\	-rem
*	*	*ij	*	*ij	*	*ij	*	*ij
1D	.	fac-	1A	fac-	1f	fac-	1dd	fac-
=6	=6	=6	=6	=6	=6	=6	=6	=6
1.F	.	-to-	1.A	-to-	1.f	-to-	1.cc	-to-
2F\	.	-re(m)	2A\	-re(m)	2f\	-re(m)	2cc\	-rem
*	*	*Xij	*	*Xij	*	*Xij	*	*Xij
1BB-	.	cae-	1B-	cae-	1f	cae-	1dd	cae-
=7	=7	=7	=7	=7	=7	=7	=7	=7
1E-X	.	-li	1G	-li	1g	-li	1b-	-li
1C	.	et	1e-X	et	1g	et	1.a	et
1D	.	ter-	1d	ter-	1f#X	ter-	.	.
.	.	.	.	.	.	.	2a\	ter-
=8	=8	=8	=8	=8	=8	=8	=8	=8
1GG	.	-rae	1B-	-rae	1g,<	-rae	1g	-rae
1D	.	Vi-	1r	.	1f	Vi-	1r	.
1E	.	-ſi-	1r	.	1g	-ſi-	1r	.
=9	=9	=9	=9	=9	=9	=9	=9	=9
!	!	!	!LO:TX:a:t=3.	!	!	!	!	!
1.F	.	-bi-	00.r	.	1.a	-bi-	1r	.
.	.	.	.	.	.	.	1a	Vi-
2E\	.	-li-	.	.	2g\	-li-	.	.
1D	.	-um	.	.	1f	-um	1b-	-ſi-
=10	=10	=10	=10-	=10	=10	=10	=10	=10
1.C	.	o-	.	.	1.e	o-	1.cc	-bi-
4BB-/	.	.	.	.	4d\	.	2b-\	-li-
4C/	.	.	.	.	4e\	.	.	.
2D/	.	.	.	.	1f	.	1a	-um
2C/	.	.	.	.	.	.	.	.
=11	=11	=11	=11-	=11	=11	=11	=11	=11
2BB-/	.	.	0.r	.	0f	.	2dd\	O-
2AA/	.	.	.	.	.	.	2cc\	.
2GG/	.	.	.	.	.	.	2b-\	.
4AA/	.	.	.	.	.	.	2a\	.
4BB-/	.	.	.	.	.	.	.	.
2C/	.	.	.	.	1e	-mni-	2g/	.
2C/	.	-mni-	.	.	.	.	2g/	-mni-
=12	=12	=12	=12	=12	=12-	=12	=12	=12
1FF,<	.	-um	1r	.	1f	-um	0f	-um
1F	.	et	1A	et	1r	.	.	.
1G	.	in-	1B-	in-	1r	.	1r	.
*custos:F	*	*	*	*	*	*	*	*
!LO:LB:g=original	!	!	!	!	!	!	!LO:LB:g=original	!
=13	=13	=13	=13	=13	=13	=13	=13	=13
!	!	!	!	!	!LO:TX:a:t=18.	!	!	!
0F	.	-Vi-	1.A	-Vi-	00.r	.	1r	.
.	.	.	.	.	.	.	1cc	et
.	.	.	2A/	-ſi-	.	.	.	.
(<2D\	.	-ſi-	2F/	-bi-	.	.	1dd	in-
2E\)	.	.	2G/	-li-	.	.	.	.
=14	=14	=14	=14	=14	=14-	=14	=14	=14
1.F	.	-bi-	1A	-um	.	.	0cc	-vi-
*	*	*	*	*ij	*	*	*	*
.	.	.	1c	et	.	.	.	.
2F\	.	-li-	.	.	.	.	.	.
1BB-	.	-um	1d	in-	.	.	1b-	-ſi-
=15	=15	=15	=15	=15	=15-	=15	=15	=15
0F	.	et	0c	-Vi-	00.r	.	1.a	-bi-
.	.	.	.	.	.	.	2a\	-li-
1C	.	in	1B-	-ſi-	.	.	2g\	-um
.	.	.	.	.	.	.	2g\	in-
*	*	*	*custos:c	*	*	*	*	*
!	!	!	!LO:LB:g=original	!	!	!	!	!
=16	=16	=16	=16	=16	=16-	=16	=16	=16
1.F	.	Vi-	1.c	-bi-	.	.	1.a	-vi-
2E\	.	.	4d\	.	.	.	2g\	-ſi-
.	.	.	4e\	.	.	.	.	.
1D	.	.	1f	.	.	.	2a\	-bi-
.	.	.	.	.	.	.	2b-\	.
=17	=17	=17	=17	=17	=17-	=17	=17	=17
1E-X	.	-ſi-	1e-X	.	00.r	.	0cc	-li-
1F	.	-bi-	1.d	.	.	.	.	.
!	!	!	!	!	!	!	!LO:N:acc=#	!
2G\	.	-li-	.	.	.	.	1bn	.
2G\	.	-um	2d\	-li-	.	.	.	.
=18	=18	=18	=18	=18	=18-	=18	=18-	=18
1C,<	.	.	1c	-um	.	.	1cc	-um
*	*	*	*	*Xij	*	*	*	*
1GG	.	et	1B-	et	.	.	1r	.
1GG	.	in	1B-	in	.	.	1r	.
=19	=19	=19	=19	=19	=19-	=19	=19	=19
(<1BB-	.	V-	0.d	V-	00.r	.	1r	.
1D)	.	.	.	.	.	.	1b-	et
1E	.	-num	.	.	.	.	1b-	in
=20-	=20-	=20	=20	=20	=20-	=20	=20	=20
0F#X	.	V-	0.A	-num	.	.	0dd	V-
1F#	.	-nu(m)	.	.	.	.	1cc	-num
=21	=21	=21	=21	=21	=21-	=21	=21	=21
1.G	.	Do-	1.G	Do-	00.r	.	1.b-	Do-
2F\	.	.	2F/	.	.	.	4a\	.
.	.	.	.	.	.	.	4b-\	.
2E-X\	.	.	2E-y/	.	.	.	1cc	.
2D\	.	.	2F/	.	.	.	.	.
=22	=22	=22	=22	=22	=22-	=22	=22	=22
1C	.	.	0G	.	.	.	1b-	.
1.D	.	.	.	.	.	.	1.a	.
.	.	.	1F#X	-mi-	.	.	.	.
2D\	.	-mi-	.	.	.	.	2a\	-mi-
=23	=23	=23	=23	=23	=23-	=23	=23-	=23
1GG,<	.	-num	1G,<	-num	00.r	.	0g	-num
1D	.	Je-	1F	Je-	.	.	.	.
1E	.	-ſu(m)	1G	-ſu(m)	.	.	1r	.
=24-	=24-	=24	=24	=24	=24-	=24	=24	=24
*	*	*ij	*	*	*	*	*	*
0F	.	Je-	2A\	Je-	.	.	1r	.
.	.	.	2B-\	.	.	.	.	.
.	.	.	2A\	.	.	.	1a	Je-
.	.	.	2G\	.	.	.	.	.
1D	.	-ſu(m)	1F	.	.	.	1b-	-ſum
*	*	*Xij	*	*	*	*	*	*
=25	=25	=25	=25	=25	=25-	=25	=25-	=25
0C	.	CHri-	1.E	.	00.r	.	1.cc	.
*	*	*	*	*	*	*	*	*ij
.	.	.	2F/	.	.	.	2dd\	Je-
1C	.	-ſtu(m)	2D/	.	.	.	2b-\	.
.	.	.	2E/	.	.	.	2cc\	.
*	*	*	*	*	*	*	*custos:a	*
!	!	!	!	!	!	!	!LO:LB:g=original	!
=26-	=26-	=26	=26	=26	=26-	=26	=26	=26
0D	.	Je-	2F/	.	.	.	2a\	.
.	.	.	2E/	.	.	.	2g\	.
.	.	.	2F/	.	.	.	2a\	.
.	.	.	2G/	.	.	.	2b-\	.
1AA	.	-ſu(m)	1A	.	.	.	1cc	.
*custos:BB	*	*	*custos:G	*	*	*	*	*
!LO:LB:g=original	!	!	!LO:LB:g=original	!	!	!	!	!
=27	=27	=27	=27	=27	=27-	=27	=27	=27
1BB-	.	CHri-	1G	-ſum	00.r	.	1f,<	-ſum
*	*	*	*	*	*	*	*	*Xij
0C	.	-ſtu(m)	0G	CHri-	.	.	1f	CHri-
.	.	.	.	.	.	.	1e	.
=28	=28	=28	=28	=28	=28-	=28	=28	=28
1F	.	.	1A	-ſtu(m)	.	.	1f	-ſtu(m)
1r	.	.	2B-\	fi-	.	.	2dd\	fi-
.	.	.	2c\	-li-	.	.	2ee\	-li-
2D\	.	fi-	1d	-u(m)	.	.	1ff	-um
2E\	.	-li-	.	.	.	.	.	.
=29	=29	=29	=29	=29	=29-	=29	=29	=29
1F	.	-um	2A\	De-	00.r	.	1.cc	De-
.	.	.	2B-\	-i	.	.	.	.
1.C	.	De-	1c	U-	.	.	.	.
.	.	.	.	.	.	.	2dd\	-i
.	.	.	1G	-ni-	.	.	1ee-X	V-
2D/	.	-i	.	.	.	.	.	.
=30-	=30-	=30	=30	=30	=30-	=30	=30	=30
2E-X\	.	u-	0G	-ge-	.	.	1b-	-ni-
2D\	.	-ni-	.	.	.	.	.	.
1C	.	-ge-	.	.	.	.	1.a	-ge-
2D/	.	.	1F#X	-ni-	.	.	.	.
2D/	.	-ni-	.	.	.	.	2a\	-ni-
!	!	!	!	!	!LO:LB:g=original	!	!	!
=31	=31	=31	=31	=31	=31	=31	=31	=31
1GG,<	.	-tum	1G,<	-tu(m)	1r	.	1g,<	-tum
1E-X	.	Et	1B-	Et	1e-X	Et	1g	Et
1E-	.	ex	1B-	ex	1e-	ex	1g	ex
=32-	=32-	=32	=32	=32	=32	=32	=32	=32
0E-y	.	Pa-	1B-	Pa-	0e-y	Pa-	(<1g	Pa-
.	.	.	1c	.	.	.	1a)	.
1BB-	.	-tre	1d	-tre	1f	-tre	1b-	-tre
=33	=33	=33	=33-	=33	=33	=33	=33-	=33
0F	.	na-	0c	na-	0f	na-	0a	na-
1F	.	-tu(m)	1c	-tu(m)	1f	-tu(m)	1a	-tu(m)
=34	=34	=34	=34	=34	=34	=34	=34	=34
1r	.	.	1r	.	1r	.	1r	.
*	*	*ij	*	*ij	*	*ij	*	*ij
1F	.	Et	1c	Et	1f	Et	1a	Et
1F	.	ex	1c	ex	1f	ex	1a	ex
=35-	=35-	=35	=35	=35	=35	=35	=35	=35
0F	.	Pa-	1c	Pa-	0f	Pa-	1a	Pa-
.	.	.	1d	.	.	.	1b-	.
1C	.	-tre	1e	-tre	1g	-tre	1cc	-tre
=36	=36	=36	=36-	=36	=36	=36	=36-	=36
!	!	!	!	!	!	!	!LO:N:acc=#	!
0G	.	na-	0d	na-	0g	na-	0bn	na-
1G	.	-tu(m)	1d	-tu(m)	1g	-tu(m)	1b	-tu(m)
*	*	*Xij	*	*Xij	*	*Xij	*	*Xij
=37	=37	=37	=37	=37	=37	=37	=37	=37
1r	.	.	1r	.	1r	.	1r	.
1G	.	an-	1d	an-	1g	an-	1b-	an-
1C	.	-te	1e	-te	1g	-te	1cc	-te
=38	=38	=38	=38	=38	=38	=38	=38-	=38
1.F	.	om-	1.c	om-	1.a	om-	1.a	o(m-
2E\	.	-ni-	2c\	-ni-	2g\	-ni-	2a\	-n)i-
1D	.	-a	1d	-a	1f	-a	1b-	-a
*	*	*	*custos:B	*	*	*	*custos:g	*
!	!	!	!LO:LB:g=original	!	!	!	!LO:LB:g=original	!
=39	=39	=39	=39	=39	=39	=39	=39	=39
*	*	*ij	*	*ij	*	*ij	*	*
1.E-X	.	om-	1.B-	om-	1.g	om-	1.g	om-
2D\	.	-ni-	2B-\	-ni-	2f\	-ni-	2g\	-ni-
1C	.	-a	1c	-a	1e-X	-a	1g	-a
*	*	*Xij	*	*Xij	*	*Xij	*	*
=40	=40	=40	=40	=40	=40	=40	=40	=40
1C	.	ſae-	0A	ſae-	1e-y	ſae-	0g	ſae-
1.D	.	.	.	.	1.d	-cu-	.	.
.	.	.	1A	-cu-	.	.	1f#X	-cu-
2D\	.	-cu-	.	.	2d\	-la	.	.
*custos:GG	*	*	*	*	*	*	*	*
!LO:LB:g=original	!	!	!	!	!	!	!	!
=41	=41	=41	=41	=41	=41-	=41	=41	=41
1GG	.	-la	2B-\	-la	0d	an-	1g	-la
.	.	.	2d\	an-	.	.	.	.
*	*	*ij	*	*	*	*	*	*
1G	.	an-	1B-	-te	.	.	1b-	an-
1E-X	.	-te	1.e-X	om-	1g	.	1g	-te
=42	=42	=42	=42-	=42	=42	=42	=42	=42
1.A-X	.	om-	.	.	1e-X	-te	1.cc	om-
.	.	.	2d\	-ni-	.	.	.	.
.	.	.	1c	-a	1.a-X	om-	.	.
2G\	.	-ni-	.	.	.	.	2b-\	-ni-
1F	.	-a	2f\	ſae-	.	.	1a	-a
.	.	.	4e-y\	.	2g\	-ni-	.	.
.	.	.	4d\	.	.	.	.	.
=43	=43	=43	=43	=43	=43	=43	=43	=43
1F	.	ſae-	0c	.	(2f\	-a	0dd	ſae-
.	.	.	.	.	2e\)	.	.	.
1.G	.	.	.	.	1.d	ſae-	.	.
!	!	!	!LO:N:acc=#	!	!	!	!	!
.	.	.	1Bn	-cu-	.	.	1dd	-cu-
2G\	.	-cu-	.	.	2d\	-cu-	.	.
=44	=44	=44	=44-	=44	=44-	=44	=44-	=44
2C/	.	-la	0c	-la	1e	-la	2cc\	-la
*	*	*Xij	*	*	*	*	*	*
2C/	.	De-	.	.	.	.	2e/	De-
1D	.	-um	.	.	1r	.	1f	-u(m)
1E	.	de	1r	.	1r	.	1g	de
=45	=45	=45	=45	=45	=45	=45	=45	=45
0F	.	De-	1A	De-	1c	de-	0a	De-
.	.	.	1B-	-u(m)	1d	-u(m)	.	.
1F	.	-o	1c	de	1e	de	1a	-o
=46	=46	=46	=46-	=46	=46-	=46	=46	=46
*	*	*ij	*	*	*	*	*	*ij
1D	.	De-	0d	De-	0f	De-	1f	De-
1E	.	-um	.	.	.	.	1g	-u(m)
1F	.	de	1d	-o	1f	-o	1a	de
!	!	!	!	!	!LO:PB:g=original	!	!	!
=47-	=47-	=47	=47	=47	=47	=47	=47-	=47
*	*	*	*	*ij	*	*ij	*	*
0G	.	De-	1B-	De-	1d	de-	0b-	De-
.	.	.	1c	-u(m)	1e	-u(m)	.	.
1G	.	-o	1d	de	1f	de	1b-	-o
*	*	*Xij	*	*	*	*	*	*Xij
=48	=48	=48	=48-	=48	=48	=48	=48	=48
0.r	.	.	0e-X	De-	0g	De-	0.r	.
.	.	.	1e-	-o	1g	-o	.	.
*	*	*	*	*Xij	*	*Xij	*	*
=49	=49	=49	=49	=49	=49	=49	=49-	=49
1E-X	.	lu-	1e-y	lu-	1g	lu-	1b-	lu-
1E-	.	-me(n)	1e-	-men	1g	-men	1b-	-me(n)
1BB-	.	de	1d	de	1f	De	1dd	de
=50	=50	=50	=50	=50	=50	=50	=50	=50
1.F	.	lu-	1.c	lu-	1.f	lu-	1.a	lu-
2F\	.	-mi-	2c\	-mi-	2f\	-mi-	2a\	-mi-
1F	.	-ne	1c	-ne	1f	-ne	1a	-ne
=51	=51	=51	=51-	=51	=51	=51	=51	=51
0F	.	De-	0c	De-	0f	De-	0a	De-
1D	.	-u(m)	1d	-u(m)	1f	-u(m)	1b-	-u(m)
*	*	*	*custos:B	*	*	*	*	*
!	!	!	!LO:LB:g=original	!	!	!	!	!
=52	=52	=52	=52	=52	=52	=52	=52	=52
!LO:TX:t=P:problem:♭ above	!	!	!	!	!	!	!	!
1E-X	.	Ve-	1B-	Ve-	1g	Ve-	1g	Ve-
1D	.	-ru(m)	1B-	-rum	1f	.	1g	-ru(m)
1C	.	de	1c	de	1e	-rum	1a	de
=53	=53	=53	=53	=53	=53	=53	=53-	=53
1.BB-	.	De-	1.d	De-	2d\	de	0b-	De-
.	.	.	.	.	2c\	De-	.	.
.	.	.	.	.	2d\	.	.	.
2C\	.	.	2c\	.	2e\	.	.	.
1D	.	.	1B-	.	1f	.	1b-	-o
=54-	=54-	=54	=54	=54	=54	=54	=54-	=54
1E-X	.	-o	1c	-o	1g	-o	0b-	Ve-
0F	.	Ve-	0c	Ve-	0c	Ve-	.	.
.	.	.	.	.	.	.	1a	.
*	*	*	*	*	*	*	*custos:b	*
!	!	!	!	!	!	!	!LO:PB:g=original	!
=55	=55	=55	=55-	=55	=55	=55	=55	=55
1BB-	.	-ro	1B-,<	-ro	1d,<	-ro	1b-	-ro
*	*	*	*	*ij	*	*ij	*	*ij
1D	.	De-	1A	De-	1d	De-	1a	De-
1D	.	-u(m)	1A	-u(m)	1d	-u(m)	1a	-u(m)
*custos:G	*	*	*	*	*	*	*	*
!LO:LB:g=original	!	!	!	!	!	!	!	!
=56	=56	=56	=56	=56	=56	=56	=56	=56
1G	.	Ve-	1B-	Ve-	1d	Ve-	1b-	Ve-
1F	.	-rum	1B-	-rum	1d	-rum	1a	-ru(m)
1En	.	de	1c	de	1e	de	1g	de
=57	=57	=57	=57	=57	=57	=57	=57	=57
1.D	.	de-	1.d	De-	1.f	De-	2a\	De-
.	.	.	.	.	.	.	4b-\	.
.	.	.	.	.	.	.	4cc\	.
.	.	.	.	.	.	.	1dd	.
2E\	.	.	4c\	.	2e\	.	.	.
.	.	.	4B-\	.	.	.	.	.
1F	.	.	1A	.	1d	.	1a	.
=58	=58	=58	=58	=58	=58	=58	=58	=58
1G	.	-o	1d	-o	1g	-o	1b-	-o
0A	.	Ve-	1d	Ve-	0e	Ve-	0a	Ve-
.	.	.	1c#X	.	.	.	.	.
=59	=59	=59	=59-	=59	=59	=59	=59-	=59
0.D	.	-ro	0.d	-ro	0.d	-ro	0.a	-ro
*	*	*	*	*Xij	*	*Xij	*	*Xij
=60	=60	=60	=60	=60	=60	=60	=60-	=60
0D	.	Ge-	0d	Ge-	0f	Ge-	00.r	.
1AA	.	-ni-	1c#X	-ni-	1e	-ni-	.	.
*	*	*	*	*	*custos:f	*	*	*
!	!	!	!	!	!LO:LB:g=original	!	!	!
=61-	=61-	=61	=61-	=61	=61	=61	=61-	=61
0D	.	-tu(m)	0d	-tum	0f	-tum	.	.
1F	.	no(n)	1f	no(n)	1a	no(n)	.	.
=62	=62	=62	=62	=62	=62	=62	=62-	=62
0C	.	fa-	(<0e	fa-	0g	fac-	00.r	.
1D	.	.	1d)	.	1f#X	.	.	.
=63	=63	=63	=63-	=63	=63	=63	=63-	=63
0.AA	.	-ctu(m)	0.c#X	-ctu(m)	0.e	-tum	.	.
=64	=64	=64	=64	=64	=64	=64	=64	=64
0F	.	con-	0f	Con-	0a	Con-	0dd	Con-
1F	.	-ſub-	1f	-ſub-	1a	-ſub-	1cc	-ſub-
=65	=65	=65	=65-	=65	=65	=65	=65-	=65
1.C	.	-ſtan-	1.e	-ſtan-	1.g	-ſtan-	1.cc	-ſtan-
2BB-/	.	-ti-	2e\	-ti-	2g\	-ti-	2cc\	-ti-
1AA	.	-a-	1f	-a-	1a	-a-	1cc	-a-
!	!	!	!LO:PB:g=original	!	!	!	!	!
=66	=66	=66	=66	=66	=66	=66	=66	=66
1BB-	.	-lem	1d	-lem	1f	-lem	1b-,<	-lem
1GG	.	Pa-	1d	Pa-	2g\	Pa-	(<1b-	Pa-
.	.	.	.	.	2f\	.	.	.
1AA	.	.	1c#X	.	1e	.	1a)	.
=67	=67	=67	=67	=67	=67	=67	=67	=67
1D,<	.	-tri	1d	-tri	1d	-tri	1a	-tri
1A	.	per	1c	per	1r	.	1cc	per
!LO:N:acc=#	!	!	!	!	!	!	!	!
1Bn	.	que(m)	1d	que(m)	1r	.	(<2b-\	que(m)
.	.	.	.	.	.	.	2a\)	.
=68	=68	=68	=68	=68	=68	=68	=68	=68
1.c	.	Om-	1.e	om-	1r	.	1.g	O-
.	.	.	.	.	1e	per	.	.
2B-\	.	.	2d\	-ni-	.	.	4a\	.
.	.	.	.	.	.	.	4b-\	.
1A	.	-mni-	1c	-a	1f	que(m)	2cc\	.
.	.	.	.	.	.	.	2cc\	-mni-
=69	=69	=69	=69	=69	=69	=69	=69	=69
2G\	.	-a	2B-\	O-	1.g	om-	2b-\	-a
2F\	.	.	4c\	.	.	.	4b-\	O-
.	.	.	4d\	.	.	.	4a\	.
2E\	.	O-	2e\	.	.	.	2g\	.
4F\	.	.	2d\	.	2f\	-ni-	4a\	.
4G\	.	.	.	.	.	.	4b-\	.
2A\	.	.	2c\	.	1e	-a	2cc\	.
2G\	.	.	4d\	.	.	.	2b-\	.
.	.	.	4e\	.	.	.	.	.
*	*	*	*	*	*	*	*custos:a	*
!LO:PB:g=original	!	!	!	!	!	!	!LO:LB:g=original	!
=70	=70	=70	=70	=70	=70	=70	=70	=70
2F\	.	.	2f\	.	2a\	O-	2a\	.
2E\	.	.	2f\	-mni-	2g\	.	4b-\	.
.	.	.	.	.	.	.	4cc\	.
2D\	.	.	1A	-a	2f\	.	2dd\	.
4E\	.	.	.	.	2e\	.	2cc\	.
4F\	.	.	.	.	.	.	.	.
2G\	.	.	1.B-	O-	2d\	.	2b-\	.
2F\	.	.	.	.	4e\	.	2a\	.
.	.	.	.	.	4f\	.	.	.
=71	=71	=71	=71-	=71	=71	=71	=71	=71
2E\	.	.	.	.	2g\	.	2g\	.
2D\	.	.	4c\	.	2f\	.	4a\	.
.	.	.	4d\	.	.	.	4b-\	.
2C/	.	.	2e\	.	2e\	.	2cc\	.
4D/	.	.	2e\	-mni-	2d\	.	2b-\	.
4E/	.	.	.	.	.	.	.	.
*	*	*	*	*	*	*	*col	*
2F\	.	.	1A	-a	2c\	.	1.a,<	.
2E\	.	.	.	.	4d\	.	.	.
.	.	.	.	.	4e\	.	.	.
=72	=72	=72	=72	=72	=72	=72	=72-	=72
1.D	.	.	2d\	fa-	1.f	.	.	.
.	.	.	2c\	.	.	.	2a\	-mni-
.	.	.	2B-\	.	.	.	1b-	-a
2D\	.	-mni-	2A\	.	2f\	-mni-	.	.
!	!	!	!	!	!	!	!LO:TX:t=P:problem:przekreślona synkopowana wartość	!
1E	.	-a	2G/	.	1e	-a	0cc	fa-
.	.	.	4e\	.	.	.	.	.
.	.	.	4d\	.	.	.	.	.
=73	=73	=73	=73	=73	=73	=73	=73-	=73
(<1F	.	fa-	1c	.	0d	fac-	.	.
1D)	.	.	1f	.	.	.	1cc	.
!	!	!	!	!	!	!	!LO:N:acc=#	!
1G	.	-cta	1d,<	-cta	1d	-ta	1bn	-cta
=74	=74	=74	=74	=74	=74-	=74	=74-	=74
0C,<	.	ſunt	1c,<	ſu(n)t	0e,<	ſu(n)t	0cc	ſu(n)t
.	.	.	1c	per	.	.	.	.
1D	.	per	1A	que(m)	1f	per	1r	.
=75	=75	=75	=75	=75	=75	=75	=75	=75
1BB-	.	que(m)	1.B-	o(m-	1d	que(m)	1dd	per
1.E-X	.	Om-	.	.	1.g	om-	1b-	que(m)
.	.	.	2A\	-n)i-	.	.	.	.
.	.	.	1G	-a	.	.	1.ee-X	om-
2D\	.	-ni-	.	.	2f\	-ni-	.	.
*	*	*	*	*	*custos:e	*	*	*
!	!	!	!	!	!LO:LB:g=original	!	!	!
=76	=76	=76	=76-	=76	=76	=76	=76-	=76
1C	.	-a	(<1c	fac-	1e-X	-a	.	.
.	.	.	.	.	.	.	2ee-X\	-ni-
1.D	.	fac-	1.A)	.	1.d	fac-	1g	-a
.	.	.	.	.	.	.	2g/	fac-
2D\	.	-ta	2A\	-ta	2d\	-ta	2f#X/	-ta
*	*	*	*custos:B	*	*	*	*Xcol	*
!	!	!	!LO:LB:g=original	!	!	!	!	!
=77	=77	=77	=77	=77	=77	=77	=77	=77
0GG,<	.	ſunt	0B-,<	ſunt	0d,<	ſu(n)t	0g	ſu(n)t
1G	.	Qui	1B-	qui	1g	Qui	1dd	Qui
=78	=78	=78	=78	=78	=78	=78	=78	=78
0G	.	prop-	0B-	prop-	0g	prop-	0dd	prop-
1D	.	-ter	1A	-ter	1f	-ter	1dd	-ter
=79	=79	=79	=79	=79	=79-	=79	=79	=79
1.G	.	nos	2B-\	nos	(<0g	nos	(<2dd\	nos
.	.	.	2A\	.	.	.	2cc\	.
.	.	.	2B-\	.	.	.	2dd\	.
4F\	.	.	2c\	.	.	.	2ee\	.
4E\	.	.	.	.	.	.	.	.
1D	.	ho-	1d	.	1f)	.	1ff)	.
=80	=80	=80	=80	=80	=80	=80	=80	=80
1E-y	.	.	0c	ho-	1g	ho-	1ee-X	ho-
1F	.	.	.	.	2f\	.	1.dd	.
.	.	.	.	.	2e\	.	.	.
!	!	!	!LO:N:acc=#	!	!	!	!	!
2G\	.	.	1Bn	-mi-	2d\	.	.	.
2G\	.	-mi-	.	.	2d\	-mi-	2dd\	-mi-
*custos:C	*	*	*	*	*	*	*custos:cc	*
!LO:LB:g=original	!	!	!	!	!	!	!LO:LB:g=original	!
=81	=81	=81	=81-	=81	=81	=81	=81	=81
0C	.	-neſ	0c	-nes	0e	-nes	0cc	-nes
1G	.	et	1d	te	1g	et	1b-	et
=82	=82	=82	=82	=82	=82-	=82	=82	=82
1B-	.	prop-	0d	prop-	1f	prop-	1b-	prop-
1B-	.	-ter	.	.	1f	-ter	1b-	-ter
*	*	*ij	*	*	*	*ij	*	*
1BB-	.	et	1d	-ter	1f	et	1b-	et
=83	=83	=83	=83-	=83	=83	=83	=83	=83
1.F	.	prop-	0c	noſ-	1.a	prop-	1.a	prop-
2E\	.	-ter	.	.	2g\	-ter	2a\	-ter
*	*	*Xij	*	*	*	*Xij	*	*
1D	.	noſ-	1d	-tra(m)	1f#X	noſ-	1b-	noſ-
=84-	=84-	=84	=84	=84	=84	=84	=84	=84
1E-X	.	-tra(m)	1B-	ſa-	1g	-tram	1b-	-tra(m)
1C	.	ſa-	0A	-lu-	1g	ſa-	1cc	ſa-
1D	.	-lu-	.	.	1f#X	-lu-	1a	-lu-
=85	=85	=85	=85-	=85	=85	=85	=85	=85
0GG,<	.	-tem	0G	-te(m)	0g	-tem	0b-	-tem
1G	.	de-	1r	.	1g	de-	1b-	de-
=86	=86	=86	=86	=86	=86-	=86	=86	=86
1D	.	-ſce(n)-	1r	.	1fn	-ſcen-	1a	-ſcen-
1D	.	-dit	1r	.	1f	-dit	1a	-dit
*	*	*	*	*	*	*ij	*	*
1G	.	de-	1B-	de-	1g	de-	1b-	de-
=87	=87	=87	=87-	=87	=87	=87	=87-	=87
2F\	.	-ſce(n)-	1A	-ſcen-	1.a	-ſcen-	2cc\	-ſcen-
2G\	.	.	.	.	.	.	2b-\	.
2F\	.	.	1A	-dit	.	.	2a\	.
2E\	.	.	.	.	2g\	.	4b-\	.
.	.	.	.	.	.	.	4cc\	.
1D	.	.	1B-	de-	1f	.	1dd	.
=88	=88	=88	=88	=88	=88	=88	=88	=88
*	*	*	*	*	*	*	*col	*
2C/	.	.	2c\	-ſce(n)-	1e	.	2a\	-dit
2BB-/	.	.	2d\	.	.	.	2b-\	de
1.AA	.	.	2c\	.	1e,<	-dit	0cc	cae-
*	*	*	*	*	*	*Xij	*	*
.	.	.	2B-\	.	.	.	.	.
.	.	.	2A/	.	1f	de-	.	.
2AA/	.	-dit	2G/	.	.	.	.	.
*	*	*	*	*	*	*	*Xcol	*
=89	=89	=89	=89	=89	=89	=89	=89-	=89
1BB-	.	de-	1F	.	1d	-ſcen-	0b-	-lis
1GG	.	-ſcen-	1B-	.	2g\	.	.	.
.	.	.	.	.	2f\	.	.	.
1AA	.	-dit	1A	-dit	1e	.	1cc	deſ-
=90	=90	=90	=90	=90	=90	=90	=90	=90
*	*	*ij	*	*	*	*	*	*
1BB-	.	de-	1d	de-	1d	.	1b-	-cen-
1D	.	-ſcen-	1F	-ſce(n)-	1f,<	-dit	1a	-dit
1C	.	-dit	1G	-dit	1e	de	1cc	de
*	*	*Xij	*	*	*	*	*	*
=91-	=91-	=91	=91	=91	=91-	=91	=91-	=91
*col	*	*	*	*	*	*	*	*
1AA	.	de	1A	de	0f	cae-	0cc	cae-
0C	.	cae-	2G/	cae-	.	.	.	.
.	.	.	2F/	.	.	.	.	.
.	.	.	1G	.	1e	.	1g	.
*	*	*	*custos:F	*	*custos:f	*	*	*
!	!	!	!LO:LB:g=original	!	!LO:LB:g=original	!	!	!
=92	=92	=92	=92	=92	=92	=92	=92-	=92
0FF,<	.	-liſ	0F,<	-lis	0f	-lis	0a	-lis
*Xcol	*	*	*	*	*	*	*	*
1F	.	Et	1c	Et	1f	Et	1r	.
=93-	=93-	=93	=93	=93	=93	=93	=93	=93
0F	.	in-	0c	in-	0f	in-	1r	.
.	.	.	.	.	.	.	1r	.
1BB-	.	-car-	1d	-Car-	1f	-car-	1b-	E(t)
=94	=94	=94	=94	=94	=94	=94	=94-	=94
1.F	.	-na-	1.c	-na-	1.f	-na-	0cc	in-
2F\	.	-tuſ	2c\	-tus	2f\	-tus	.	.
2G\	.	eſt	2B-\	eſt	1d	eſt	1dd	-car-
2D\	.	de	2B-\	de	.	.	.	.
!LO:LB:g=original	!	!	!	!	!	!	!	!
=95	=95	=95	=95	=95	=95	=95	=95	=95
1.F	.	ſpi-	1.A	ſpi-	1r	.	1.cc	-na-
.	.	.	.	.	1r	.	.	.
2F\	.	-ri-	2A/	-ri-	.	.	2cc\	-tus
2E\	.	-tu	2G/	-tu	1g	de	2cc\	eſt
2E\	.	de	2G/	de	.	.	2cc\	de
*	*	*	*	*	*	*	*custos:ff	*
!	!	!	!	!	!	!	!LO:LB:g=original	!
=96	=96	=96	=96	=96	=96	=96	=96-	=96
1.F	.	ſpi-	1.A	ſpi-	1.f	ſpi-	1.ff	ſpi-
2F\	.	-ri-	2B-\	-ri-	2f\	-ri-	2ff\	-ri-
1C	.	-tu	1c	-tu	1g	-tu	1ee-X	-tu
=97	=97	=97	=97-	=97	=97	=97	=97	=97
*col	*	*	*	*	*	*	*	*
1F	.	ſan-	0c	ſan-	2f\	ſan-	1ee-X	ſan-
.	.	.	.	.	2e-y\	.	.	.
0G	.	.	.	.	0d	.	2dd\	.
.	.	.	.	.	.	.	2cc\	.
!	!	!	!LO:N:acc=#	!	!	!	!	!
.	.	.	1Bn	.	.	.	1dd	.
*Xcol	*	*	*	*	*	*	*	*
=98-	=98-	=98	=98	=98	=98	=98	=98	=98
1C,<	.	-cto	1c	-cto	1e,<	-cto	1cc	-cto
1GG	.	Ex	1B-X	Ex	1g	Ex	1dd	ex
1GG	.	Ma-	1B-	Ma-	1g	Ma-	1dd	Ma-
=99	=99	=99	=99	=99	=99	=99	=99-	=99
1G	.	-ri-	1d	-ri-	1g	-ri-	1b-	-ri-
1.G	.	-a	1.d	-a	1.g,<	-a	1.b-	-a
2E-X\	.	Ma-	2e-X\	Ma-	2g\	Ma-	2cc\	Ma-
=100	=100	=100	=100	=100	=100	=100	=100	=100
1F	.	-ri-	1c	-ri-	1f	-ri-	1a	-ri-
1.F	.	-a	1.c	-a	1.f	-a	1.a	-a
*	*	*ij	*	*ij	*	*	*	*ij
2D\	.	Ma-	2d\	Ma-	2f\	Ma-	2b-\	Ma-
=101-	=101-	=101	=101	=101	=101	=101	=101-	=101
1E-X	.	-ri-	1B-	-ri-	1e-X	-ri-	1g	-ri-
1.E-	.	-a	1.B-	-a	1.e-,<	-a	1.g	-a
*	*	*	*	*Xij	*	*	*	*
2C/	.	Ma-	2c\	Ma-	2e-\	Ma-	2a\	Ma-
=102	=102	=102	=102-	=102	=102	=102	=102	=102
1.BB-	.	-ri-	1.d	-ri-	1.d	-ri-	1.b-	-ri-
2AA/	.	.	2c\	.	4e\	.	2cc\	.
.	.	.	.	.	4f\	.	.	.
1GG	.	.	1B-	.	1g	.	1dd	.
=103	=103	=103	=103	=103	=103	=103	=103	=103
1GG	.	-a	1B-,<	-a	1f,<	-a	1dd	-a
*	*	*Xij	*	*	*	*	*	*Xij
!	!	!	!	!	!LO:N:acc=#	!	!	!
1.AA	.	Vir-	1.A	Vir-	1.en	Vir-	1.dd	Vir-
2AA/	.	-gi-	2G/	-gi-	2e\	-gi-	2cc#X\	-gi-
=104-	=104-	=104	=104	=104	=104-	=104	=104-	=104
*col	*	*	*	*	*	*	*	*
1D	.	-ne	1G	-ne	1d,<	-ne	1dd	-ne
0G	.	et	(2d\	et	0d	et	(<2b-\	et
.	.	.	2e\	.	.	.	2ccny\	.
.	.	.	2f\	.	.	.	2dd\	.
.	.	.	2d\)	.	.	.	2b-\)	.
*Xcol	*	*	*custos:e	*	*	*	*	*
!	!	!	!LO:LB:g=original	!	!	!	!	!
=105	=105	=105	=105	=105	=105	=105	=105	=105
0C	.	ho-	2e-X\	ho-	0c	ho-	2cc\	ho-
.	.	.	2f\	.	.	.	2dd\	.
.	.	.	2e-\	.	.	.	2cc\	.
.	.	.	2d\	.	.	.	2b-\	.
1C	.	-mo	2c\	.	1c	-mo	2a\	.
.	.	.	2B-\	.	.	.	2g\	.
=106	=106	=106	=106	=106	=106	=106	=106	=106
1r	.	.	1A	.	1r	.	1f	.
1D	.	et	1A	-mo	1f	et	1f	-mo
1BB-	.	ho-	1d	et	1d	ho-	1b-	et
=107	=107	=107	=107	=107	=107	=107	=107	=107
1BB-	.	-mo	1B-	ho-	1d	-mo	1b-	ho-
*	*	*ij	*	*	*	*	*	*
1E-X	.	et	1.B-	-mo	1g	et	1g	-mo
1C	.	ho-	.	.	1e-X	ho-	1cc	et
.	.	.	2e-X\	et	.	.	.	.
*	*	*	*	*	*custos:e	*	*custos:cc	*
!	!	!	!	!	!LO:LB:g=original	!	!LO:LB:g=original	!
=108	=108	=108	=108	=108	=108	=108	=108	=108
*	*	*	*	*	*	*	*col	*
1C	.	-mo	1c	ho-	1e-y	-mo	1cc	ho-
1F	.	et	1.c	-mo	1a-X	et	1a	-mo
!	!	!	!	!	!	!	!LO:TX:t=P:problem:przekreślona synkopowana wartość	!
2D\	.	ho-	.	.	2f\	ho-	0dd	et
*	*	*	*	*ij	*	*	*	*
2C\	.	.	(<2f\	et	2e-\	.	.	.
*custos:BB	*	*	*	*	*	*	*	*
!LO:LB:g=original	!	!	!	!	!	!	!	!
=109	=109	=109	=109	=109	=109	=109	=109-	=109
2BB-/	.	.	2d\	ho-	2d\	.	.	.
*col	*	*	*	*	*col	*	*	*
4C/	.	.	2c\	.	4e\	.	.	.
4D/	.	.	.	.	4f\	.	.	.
0E-X	.	.	2B-\	.	0g	.	0b-	ho-
.	.	.	4c\	.	.	.	.	.
.	.	.	4d\)	.	.	.	.	.
.	.	.	1e-X	.	.	.	.	.
*Xcol	*	*	*	*	*Xcol	*	*Xcol	*
=110	=110	=110	=110	=110	=110	=110	=110	=110
1BB-	.	-mo	1G,<	-mo	1g	-mo	1b-	-mo
*	*	*Xij	*	*Xij	*	*	*	*
1.D	.	fac-	1.A	fac-	1.g	fac-	1.a	fac-
!	!	!	!	!	!	!	!LO:N:acc=#	!
2D\	.	-tus	2G/	-tus	2f#X\	-tus	2bn\	-tuſ
=111-	=111-	=111	=111-	=111	=111-	=111	=111-	=111
0.GGl;	.	eſt.	0.Gl;	eſt.	0.gl;<	eſt	0.bnl;<	eſt.
=112||	=112||	=112||	=112||	=112||	=112||	=112||	=112||	=112||
!	!	!	!	!	!LO:TX:a:t=2	!	!	!
00.r	.	.	00.r	.	00.r	.	1r	.
.	.	.	.	.	.	.	1g	Cru-
.	.	.	.	.	.	.	1g	-ci-
=113-	=113-	=113	=113-	=113	=113-	=113	=113-	=113
.	.	.	.	.	.	.	0b-X	-fi-
.	.	.	.	.	.	.	1a	-xus
=114-	=114-	=114	=114-	=114	=114	=114	=114	=114
00.r	.	.	00.r	.	1r	.	1.dd	e-
.	.	.	.	.	1d	Cru-	.	.
.	.	.	.	.	.	.	2dd\	-ti-
.	.	.	.	.	1d	-ci-	2a\	-am
.	.	.	.	.	.	.	2b-\	pro
=115-	=115-	=115	=115-	=115	=115	=115	=115	=115
.	.	.	.	.	0e-X	-fi-	0cc	no-
.	.	.	.	.	1d	-xus	1b-	-bis
=116-	=116-	=116	=116-	=116	=116	=116	=116	=116
00.r	.	.	00.r	.	1.g	e-	1.b-	e-
.	.	.	.	.	2g\	-ti-	2b-\	-ti-
.	.	.	.	.	2d\	-a(m)	2f/	-a(m)
.	.	.	.	.	2e\	pro	2g/	pro
=117-	=117-	=117	=117-	=117	=117	=117	=117	=117
.	.	.	.	.	0f	no-	1.a	no-
.	.	.	.	.	.	.	2b-\	.
.	.	.	.	.	1e-X	-bis	1cc	.
=118-	=118-	=118	=118	=118	=118	=118	=118	=118
00.r	.	.	1r	.	1.e-X	e-	2b-\	.
.	.	.	.	.	.	.	2a\	.
.	.	.	1G	Cru-	.	.	2b-\	.
.	.	.	.	.	2e-\	-ti-	2cc\	.
.	.	.	1G	-ci-	2B-/	-am	1dd	.
.	.	.	.	.	2c/	pro	.	.
=119-	=119-	=119	=119	=119	=119	=119	=119	=119
.	.	.	0B-	-fi-	0d	no-	1.b-	.
.	.	.	.	.	.	.	4a\	.
.	.	.	.	.	.	.	4b-\	.
.	.	.	1A	-xus	1c#X	.	1cc	.
=120	=120	=120	=120	=120	=120	=120	=120	=120
1r	.	.	1.d	e-	0d	-bis	1b-	.
1D	.	Cru-	.	.	.	.	2a\	.
.	.	.	2d\	-ti-	.	.	2g\	.
1D	.	-ci-	2A\	-am	1r	.	1a	.
.	.	.	2B-\	pro	.	.	.	.
*	*	*	*	*	*	*	*custos:g	*
!	!	!	!	!	!	!	!LO:PB:g=original	!
=121	=121	=121	=121-	=121	=121	=121	=121	=121
0E-X	.	-fi-	0c	no-	00.r	.	0g	-bis
1D	.	-xus	1B-	-bis	.	.	1r	.
=122	=122	=122	=122	=122	=122-	=122	=122	=122
1.G	.	e-	1.B-	e-	.	.	00.r	.
2G\	.	-ti-	2B-\	-ti-	.	.	.	.
2D\	.	-am	2F/	-a(m)	.	.	.	.
2E\	.	pro	2G/	pro	.	.	.	.
=123	=123	=123	=123	=123	=123	=123	=123-	=123
0F	.	no-	1.A	no-	1.f	e-	.	.
.	.	.	2G/	.	2f\	-ti-	.	.
1F	.	-bis	2A/	.	2c\	-a(m)	.	.
.	.	.	2B-/	.	2d\	pro	.	.
!	!	!	!LO:LB:g=original	!	!	!	!	!
=124-	=124-	=124	=124	=124	=124	=124	=124	=124
*	*	*ij	*	*	*	*	*col	*
1.E-X	.	e-	0c	.	0e-X	no-	1g	Cru-
.	.	.	.	.	.	.	1g	-ci-
2E-\	.	-ti-	.	.	.	.	.	.
2BB-/	.	-am	2B-\	.	2d\	.	0b-	-fi-
2C/	.	pro	2A\	.	2c\	.	.	.
*	*	*	*	*	*custos:B	*	*	*
!	!	!	!	!	!LO:PB:g=original	!	!	!
=125	=125	=125	=125	=125	=125	=125	=125-	=125
0.D	.	no-	1G	.	1B-	.	.	.
.	.	.	2F#X/	.	2A/	.	1a	-xus
.	.	.	2E/	.	2G/	.	.	.
*	*	*	*	*	*	*	*Xcol	*
.	.	.	1F#X	.	1A	.	1r	.
=126-	=126-	=126	=126-	=126	=126-	=126	=126	=126
0.GG	.	-bis	0G	-bis	0G	-bis	1r	.
*	*	*	*	*	*	*	*	*ij
.	.	.	.	.	.	.	1dd	Cru-
.	.	.	1r	.	1r	.	1dd	-ci-
=127	=127	=127	=127	=127	=127	=127	=127-	=127
!	!	!	!LO:TX:a:t=4	!	!	!	!	!
0.r	.	.	00.r	.	00.r	.	0ee-X	-fi-
.	.	.	.	.	.	.	1dd	-xus
*	*	*	*	*	*	*	*	*Xij
=128-	=128-	=128	=128-	=128	=128-	=128	=128	=128
*col	*	*	*	*	*	*	*	*
1GG	.	Cru-	.	.	.	.	1.gg	e-
1GG	.	-ci-	.	.	.	.	.	.
.	.	.	.	.	.	.	2gg\	-ti-
0BB-	.	-fi-	.	.	.	.	2dd\	-a(m)
.	.	.	.	.	.	.	2ee\	pro
=129-	=129-	=129	=129-	=129	=129-	=129	=129	=129
.	.	.	00.r	.	0.r	.	0ff	no-
0AA	.	-xus	.	.	.	.	.	.
!	!	!	!	!	!	!	!LO:N:acc=#	!
!	!	!	!	!	!	!	!LO:TX:t=P:problem:# above	!
.	.	.	.	.	.	.	1een	.
*Xcol	*	*	*	*	*	*	*	*
=130	=130	=130	=130-	=130	=130	=130	=130-	=130
1.D	.	e-	.	.	1r	.	0.dd	-bis
.	.	.	.	.	1d	Cru-	.	.
2D/	.	-ti-	.	.	.	.	.	.
2AA/	.	-am	.	.	1d	-ci-	.	.
2BB-/	.	pro	.	.	.	.	.	.
=131-	=131-	=131	=131-	=131	=131	=131	=131-	=131
*	*	*	*	*	*	*	*	*ij
0.C	.	no-	1r	.	0.e-X	-fi-	1.cc	e-
.	.	.	1G	Cru-	.	.	.	.
.	.	.	.	.	.	.	2cc\	-ti-
.	.	.	1G	-ci-	.	.	2g\	-am
.	.	.	.	.	.	.	2a\	pro
=132-	=132-	=132	=132	=132	=132-	=132	=132	=132
0GG	.	-bis	0B-	-fi-	1d	-x(us)	0b-	no-
*	*	*Xij	*	*	*	*	*	*
.	.	.	.	.	2g\	e-	.	.
.	.	.	.	.	2g\	-ti-	.	.
1r	.	.	1A	-xus	2d\	-a(m)	1a	-bis
.	.	.	.	.	2eny\	pro	.	.
!LO:LB:g=original	!	!	!	!	!	!	!	!
=133	=133	=133	=133	=133	=133	=133	=133	=133
0D	.	e-	1.d	e-	0.f	no-	0.r	.
.	.	.	2d\	-ti-	.	.	.	.
1D	.	-ti-	2A\	-a(m)	.	.	.	.
.	.	.	2B-\	pro	.	.	.	.
=134	=134	=134	=134	=134	=134-	=134	=134-	=134
0C	.	-am	0c	no-	0e-X	-bis	1.cc	e-
.	.	.	.	.	.	.	2cc\	-ti-
1C	.	pro	1B-	.	1e-	pro	1g	-am
=135-	=135-	=135	=135-	=135	=135	=135	=135	=135
0.D	.	no-	0.A	.	1d	no-	1g	pro
.	.	.	.	.	2c\	.	1g	no-
.	.	.	.	.	2B-\	.	.	.
.	.	.	.	.	1A	.	1f#X	.
=136-	=136-	=136	=136	=136	=136	=136	=136	=136
0GG,<	.	-bis	0G,<	-bis	0B-	-bis	0g	-bis
*	*	*	*	*	*	*	*	*Xij
1G	.	ſub	1B-	ſub	1d	ſub	1g	ſub
=137	=137	=137	=137	=137	=137	=137	=137-	=137
1.F	.	Pon-	1.c	Pon-	1.f	Pon-	1.a	Pon-
2E-X\	.	-ti-	2c\	-ti-	2f\	-ti-	2a\	-ti-
1D	.	-o	1d	-o	1f	-o	1b-	-o
=138	=138	=138	=138-	=138	=138	=138	=138	=138
1E-X	.	Pi-	1B-	Pi-	1g	Pi-	1b-	Pi-
1C	.	.	0c	-la-	(<1g	-la-	1b-	-la-
1F	.	-la-	.	.	1f)	.	1a	.
=139-	=139-	=139	=139-	=139	=139	=139	=139-	=139
*	*	*	*	*	*col	*	*	*
0BB-	.	-to	0B-	-to	1f	-to	0b-	-to
.	.	.	.	.	0f	Paſ-	.	.
1r	.	.	1r	.	.	.	1r	.
*	*	*	*	*	*Xcol	*	*	*
!	!	!	!	!	!	!	!LO:LB:g=original	!
=140	=140	=140	=140	=140	=140	=140	=140	=140
0.r	.	.	0.r	.	1e-X	-ſus	00.r	.
.	.	.	.	.	1d	et	.	.
.	.	.	.	.	1c	ſe-	.	.
=141-	=141-	=141	=141-	=141	=141	=141	=141-	=141
0.B-	.	Paſ-	0.d	Paſ-	0d	-pul-	.	.
.	.	.	.	.	1d	-t(us)	.	.
=142-	=142-	=142	=142-	=142	=142-	=142	=142	=142
1A-X	.	-sus	1c	-sus	0.r	.	0.ff	Paſ-
!	!	!	!LO:N:acc=#	!	!	!	!	!
1G	.	et	1Bn	et	.	.	.	.
1F	.	ſe-	1A	ſe-	.	.	.	.
=143	=143	=143	=143	=143	=143-	=143	=143-	=143
*	*	*	*	*	*	*ij	*	*
!	!	!	!LO:N:acc=#	!	!	!	!	!
[<0.G	.	-pul-	0Bn	-pul-	1g	Paſ-	1ee-X	-ſus
.	.	.	.	.	1f	-ſus	1dd	et
.	.	.	1c	.	1e-X	et	1cc	ſe-
=144-	=144-	=144	=144-	=144	=144	=144	=144	=144
0G]	.	.	0c	-tus	1d	ſe-	0dd	-pul-
.	.	.	.	.	1.d	-pul-	.	.
!	!	!	!LO:N:acc=#	!	!	!	!	!
1G	.	-t(us)	1Bn	.	.	.	1dd	-tus
.	.	.	.	.	2d\	-t(us)	.	.
*	*	*	*custos:c	*	*custos:e	*Xij	*	*
!	!	!	!LO:PB:g=original	!	!LO:LB:g=original	!	!	!
=145	=145	=145	=145	=145	=145	=145	=145-	=145
*	*	*	*	*	*col	*	*col	*
0C	.	eſt	0c	eſt	1e-X	eſt	1cc	eſt
.	.	.	.	.	0e-	Paſ-	0cc	Paſ-
1r	.	.	1r	.	.	.	.	.
*	*	*	*	*	*Xcol	*	*	*
=146	=146	=146	=146	=146	=146-	=146	=146	=146
*	*	*ij	*	*	*	*	*	*
0.F	.	Paſ-	0.r	.	1d	-sus	1b-	-sus
*	*	*	*	*	*	*	*	*ij
.	.	.	.	.	1r	.	0a	Paſ-
.	.	.	.	.	1r	.	.	.
*	*	*	*	*	*	*	*Xcol	*
=147-	=147-	=147	=147-	=147	=147	=147	=147-	=147
1E-X	.	-sus	0.c	Paſ-	0.r	.	1g	-sus
*	*	*	*	*	*	*	*	*Xij
1D	.	et	.	.	.	.	1f	et
1C	.	ſe-	.	.	.	.	1en	ſe-
=148	=148	=148	=148-	=148	=148-	=148	=148	=148
[<0.D	.	-pul-	1B-	-ſus	0.d	Paſ-	0f#X	-pul-
.	.	.	1A	et	.	.	.	.
.	.	.	1G	ſe-	.	.	1g	.
=149-	=149-	=149	=149	=149	=149-	=149	=149-	=149
0.D_<	.	.	0F#X	-pul-	1d	-sus	0a	.
.	.	.	.	.	1c	et	.	.
.	.	.	1G	.	1B-	ſe-	1b-	.
=150-	=150-	=150	=150-	=150	=150	=150	=150-	=150
0D]	.	.	0G	.	0A	-pul-	0a	.
1D	.	-tus	1F#X	-tus	1A	-t(us)	1a	-t(us)
=151-	=151-	=151	=151-	=151	=151-	=151	=151	=151
!	!	!	!	!	!LO:N:acc=#	!	!	!
0.GGl;	.	eſt	0.Gl;	eſt.	0.Bnl;	eſt	0.gl;	eſt.
*	*	*Xij	*	*	*	*	*	*
!LO:PB:g=original	!	!	!	!	!	!	!	!
=152||	=152||	=152||	=152||	=152||	=152||	=152||	=152||	=152||
1G	.	Et	1d	Et	1g	Et	1b-	Et
1G	.	re-	1d	re-	1g	re-	1b-	re-
1D	.	-ſur-	1d	-ſur-	1f#X	-ſur-	1a	-ſur-
=153	=153	=153	=153-	=153	=153	=153	=153	=153
2G\	.	-re-	0d	-re-	0g	-re-	2b-\	-re-
2F\	.	.	.	.	.	.	2a\	.
2G\	.	.	.	.	.	.	2b-\	.
2A\	.	.	.	.	.	.	2cc\	.
!	!	!	!	!	!LO:N:acc=-	!	!	!
1B-	.	-xit	1B-	-xit	1fn	-xit	1dd	-xit
=154	=154	=154	=154	=154	=154	=154	=154	=154
1F	.	ter-	1A	ter-	1f	ter-	1cc	ter-
2F\	.	-ti-	2A\	-ti-	2f\	-ti-	2cc\	-ti-
2F\	.	-a	2A\	-a	2f\	-a	2cc\	-a
1G	.	di-	2B-\	di-	2d\	di-	1b-	di-
.	.	.	2c\	.	2e\	.	.	.
=155	=155	=155	=155	=155	=155	=155	=155	=155
0D,<	.	-e	0d,<	-e	0f#X	-e	0a	-e
!	!	!	!	!	!LO:N:acc=-	!	!	!
1B-	.	ſe-	1B-	ſe-	1fn	ſe-	1dd	ſe-
=156	=156	=156	=156	=156	=156	=156	=156	=156
1.B-	.	-cu(n)-	1.B-	-cun-	1.f	-cu(n)-	1.dd	-cu(n)-
2B-\	.	-du(m)	2B-\	-du(m)	2f\	-du(m)	2dd\	-du(m)
*	*	*ij	*	*ij	*	*ij	*	*
1B-	.	ſe-	1B-	ſe-	1f	ſe-	1dd	ſe-
*	*	*	*	*	*	*	*custos:cc	*
!	!	!	!	!	!	!	!LO:LB:g=original	!
=157	=157	=157	=157	=157	=157	=157	=157	=157
1.F	.	-cu(n)-	1.A	-cun-	1.a	-cu(n)-	1.cc	-cun-
2F\	.	-du(m)	2A\	-du(m)	2a\	-du(m)	2cc\	-du(m)
*	*	*Xij	*	*Xij	*	*Xij	*	*
1D	.	ſcrip-	1B-	ſcrip-	1a	ſcrip-	1dd	ſcri-
=158-	=158-	=158	=158	=158	=158	=158	=158	=158
(<1E-X	.	-tu-	1B-	.	0g	-tu-	1b-	-ptu-
1C	.	.	1e-X	-tu-	.	.	2cc\	.
.	.	.	.	.	.	.	2b-\	.
1D)	.	.	1d	.	1f#X	.	1a	.
=159	=159	=159	=159-	=159	=159	=159	=159	=159
1GG,<	.	-raſ	0d	-ras	1g	-ras	1g	-ras
!	!	!	!	!	!LO:N:acc=-	!	!	!
1D	.	et	.	.	1fn	et	1r	.
1E	.	a-	1r	.	1g	a-	1r	.
=160	=160	=160	=160	=160	=160	=160	=160	=160
1.F	.	-ſce(n)-	1r	.	1.a	-sce(n)-	1r	.
.	.	.	1c	et	.	.	1a	et
2F\	.	-dit	.	.	2g\	-dit	.	.
*	*	*ij	*	*	*	*	*	*
1D	.	a-	1d	a-	1f	a-	1b-	a-
*	*	*	*custos:e	*	*custos:e	*	*	*
!	!	!	!LO:LB:g=original	!	!LO:LB:g=original	!	!	!
=161	=161	=161	=161	=161	=161	=161	=161	=161
1C	.	-ſcen-	1e	-ſcen-	1e	-ſcen-	1cc	-ſcen-
1C	.	-dit	1e	-dit	1e	-dit	1cc	-dit
*	*	*Xij	*	*	*	*	*	*
1D	.	in	1d	in	1f	in	1a	in
=162	=162	=162	=162-	=162	=162	=162	=162	=162
*col	*	*	*col	*	*	*	*	*
1BB-	.	cae-	1d	cae-	0f	cae-	(<2b-\	cae-
.	.	.	.	.	.	.	2a\	.
0C	.	.	0c	.	.	.	2g\	.
.	.	.	.	.	.	.	2f/	.
.	.	.	.	.	1e	-lu(m)	1g)	.
*Xcol	*	*	*Xcol	*	*	*	*	*
=163-	=163-	=163	=163	=163	=163	=163	=163	=163
1FF,<	.	-lu(m)	1c	-lu(m)	1f	ſe-	1a	-lu(m)
1F	.	ſe-	1c	ſe-	1f	-det	1cc	ſe-
2F\	.	-det	2c\	-det	2f\	ad	2cc\	-det
2BB-/	.	ad	2B-\	ad	2f\	dex-	2dd\	ad
=164	=164	=164	=164	=164	=164	=164	=164	=164
1.F	.	dex-	1.A	dex-	0f	-te-	(<1.cc	dex-
2E\	.	-te-	4B-\	.	.	.	4dd\	.
.	.	.	4c\	.	.	.	4ee\	.
1D	.	-ra(m)	2d\	.	1f	-ra(m)	2ff\)	.
.	.	.	2d\	-te-	.	.	2ff\	-te-
*custos:E	*	*	*	*	*	*	*	*
!LO:LB:g=original	!	!	!	!	!	!	!	!
=165	=165	=165	=165	=165	=165	=165	=165	=165
*	*	*	*	*	*	*	*col	*
(1E-y	.	Pa-	1c,<	-ra(m)	1g	.	1ee-X	-ra(m)
1F	.	.	(<1c	Pa-	(<1f	Pa-	0dd	Pa-
!	!	!	!LO:N:acc=#	!	!	!	!	!
1G)	.	.	1Bn)	.	1d)	.	.	.
*	*	*	*	*	*	*	*Xcol	*
=166-	=166-	=166	=166-	=166	=166-	=166	=166-	=166
0C,<	.	-triſ	0c,<	-tris	0e	-triſ	0cc	-triſ
1C	.	et	1c	et	1e	et	1cc	et
=167	=167	=167	=167	=167	=167	=167	=167	=167
1.G	.	i-	1.d	i-	1.g	i-	1.b-	i-
2G\	.	-te-	2d\	-te-	2g\	-te-	2b-\	-te-
2G,<\	.	-ru(m)	2d\	-ru(m)	2g\	-ru(m)	2b-\	-ru(m)
*	*	*ij	*	*ij	*	*ij	*	*ij
2G\	.	et	2d\	et	2g\	et	2b-\	et
=168	=168	=168	=168	=168	=168	=168	=168	=168
1.D	.	i-	1.d	i-	1.f	i-	1.a	i-
2D\	.	-te-	2d\	-te-	2f\	-te-	2a\	-te-
1E-X	.	-ru(m)	1B-	-ru(m)	1e-y	-ru(m)	1g	-ru(m)
*	*	*Xij	*	*Xij	*	*Xij	*	*Xij
=169	=169	=169	=169-	=169	=169	=169	=169-	=169
1C	.	Ven-	1e-X	Ven-	1g	Ven-	1cc	ven-
1.D	.	-tu-	1.d	-tu-	1g	-tu-	1.a	-tu-
.	.	.	.	.	1f#X	-rus	.	.
2D/	.	-r(us)	2c\	-rus	.	.	2a\	-r(us)
*	*	*	*	*	*	*	*custos:g	*
!	!	!	!	!	!	!	!LO:LB:g=original	!
=170-	=170-	=170	=170	=170	=170-	=170	=170	=170
0GG,<	.	eſt	0B-	eſt	0g	eſt	0g,<	eſt
1GG	.	cu(m)	1B-	Cu(m)	1g	Cu(m)	1g	cu(m)
=171	=171	=171	=171-	=171	=171	=171	=171	=171
1.D	.	glo-	1.d	glo-	1.f	glo-	1.a	glo-
2D\	.	-ri-	2d\	-ri-	2f\	-ri-	2a\	-ri-
1G	.	-a	1d	-a	1g	-a	1b-	-a
=172	=172	=172	=172	=172	=172	=172	=172	=172
1.F	.	iu-	1.f	iu-	1.a	iu-	1.cc	iu-
2C/	.	-di-	2e\	-di-	2g\	-di-	2cc\	-di-
1D	.	-ca-	1d	-ca-	1f	-ca-	1a	-ca-
=173-	=173-	=173	=173-	=173	=173	=173	=173-	=173
*col	*	*	*	*	*	*	*col	*
1BB-	.	-re	1d	-re	1f	-re	1b-	-re
0C	.	Vi-	0c	Vi-	(<1f	Vi-	0g	Vi-
.	.	.	.	.	1e)	.	.	.
*Xcol	*	*	*	*	*	*	*Xcol	*
=174-	=174-	=174	=174-	=174	=174	=174	=174-	=174
0FF,<	.	-uos	0c	-uos	1f	-uos	0a	-uos
.	.	.	.	.	1f	et	.	.
1F	.	et	1r	.	2c/	Mor-	1r	.
.	.	.	.	.	2d/	.	.	.
*	*	*	*	*	*custos:e	*	*	*
!	!	!	!LO:LB:g=original	!	!LO:LB:g=original	!	!	!
=175	=175	=175	=175	=175	=175	=175	=175	=175
[0C	.	Mor-	1r	.	1.e-X	.	1r	.
.	.	.	1r	.	.	.	1r	.
.	.	.	.	.	2d\	.	.	.
2C]	.	.	1c	et	1c	.	1ee-X	et
2D/	.	.	.	.	.	.	.	.
=176-	=176-	=176	=176	=176	=176	=176	=176-	=176
0.E-X	.	.	[0G	mor-	1g	.	[<0b-	Mor-
.	.	.	.	.	1f	.	.	.
.	.	.	2G]	.	1e	.	2b-]	.
.	.	.	2A/	.	.	.	2cc\	.
=177	=177	=177	=177-	=177	=177	=177	=177	=177
[<0.D	.	.	0B-	.	0f	.	0dd	.
.	.	.	2A/	.	1g	.	2cc\	.
.	.	.	2G/	.	.	.	2b-\	.
=178-	=178-	=178	=178	=178	=178	=178	=178	=178
0D]	.	.	0A	.	0g	.	0a	-tu-
1D	.	-tu-	1A	-tu-	1f#X	-tu-	1a	-oſ
=179-	=179-	=179	=179-	=179	=179	=179	=179-	=179
1GG,<	.	-oſ	1B-	-os	1g	-os	1g	Cu-
1G	.	Cu-	1d	Cu-	1g	Cu-	1b-	.
1G	.	-i(us)	1d	-i(us)	1g	-i(us)	1b-	-i(us)
*custos:E	*	*	*	*	*	*	*	*
!LO:LB:g=original	!	!	!	!	!	!	!	!
=180	=180	=180	=180	=180	=180	=180	=180	=180
1E-X	.	re-	1e-X	re-	1g	re-	1b-	re-
1E-	.	-gni	1e-	-gni	1g	-gni	1b-	-gni
1D	.	no(n)	1B-	no(m)	1f	no(n)	1dd	no(n)
=181	=181	=181	=181	=181	=181	=181	=181-	=181
(1.E-y	.	e-	1.e-y	e-	1.g	e-	1.g	e-
2F\)	.	.	4d\	.	4f\	.	2a\	.
.	.	.	4c\	.	4e\	.	.	.
1G	.	.	1B-	.	1d	.	1b-	.
=182-	=182-	=182	=182	=182	=182	=182	=182	=182
*col	*	*	*	*	*	*	*col	*
1E-y	.	-rit	1B-	-rit	1e-X	-rit	1cc	-rit
0F	.	fi-	(<1B-	fi-	0c	fi-	0cc	fi-
.	.	.	1A)	.	.	.	.	.
*Xcol	*	*	*	*	*	*	*Xcol	*
=183-	=183-	=183	=183-	=183	=183	=183	=183-	=183
0BB-,<	.	-nis	0B-	-nis	0d	-nis	0b-	-nis
!	!	!	!LO:N:acc=#	!	!	!	!	!
1G	.	no(n)	1Bn	no(n)	1r	.	1dd	no(n)
=184	=184	=184	=184	=184	=184	=184	=184	=184
1C	.	e-	1c	e-	1g	no(n)	1cc	e-
1C	.	-rit	1G	-rit	1c	e-	1cc	-rit
*	*	*ij	*	*	*	*	*	*
1A	.	no(n)	2r	.	1e	-rit	1cc#X	no(n)
.	.	.	2A\	no(n)	.	.	.	.
*	*	*	*	*	*	*	*custos:dd	*
!	!	!	!	!	!	!	!LO:LB:g=original	!
=185	=185	=185	=185	=185	=185-	=185	=185	=185
1.D	.	e-	1.A	e-	2r	.	0.dd	e-
*	*	*	*	*	*col	*ij	*	*
.	.	.	.	.	2a\	no(n)	.	.
.	.	.	.	.	0f	e-	.	.
2C/	.	.	4B-\	.	.	.	.	.
.	.	.	4c\	.	.	.	.	.
1BB-	.	.	1d	.	.	.	.	.
=186-	=186-	=186	=186	=186	=186	=186	=186	=186
*col	*	*	*col	*	*	*	*	*
1GG	.	-rit	1B-	-rit	1e	-rit	1dd	-rit
*	*	*Xij	*	*	*	*Xij	*	*
0AA	.	fi-	0A	fi-	0e	fi-	(<1dd	fi-
.	.	.	.	.	.	.	1cc#X)	.
*Xcol	*	*	*Xcol	*	*Xcol	*	*	*
=187-	=187-	=187	=187-	=187	=187-	=187	=187-	=187
0D,<	.	-niſ	0A	-nis	0d,<	-niſ	0dd,<	-niſ
*	*	*ij	*	*ij	*	*ij	*	*
1BB-	.	no(n)	1B-	no(n)	1f	no(n)	1dd	no(n)
=188	=188	=188	=188	=188	=188	=188	=188	=188
1.C	.	e-	0G	e-	2e\	e-	0ccn	e-
.	.	.	.	.	2d\	.	.	.
.	.	.	.	.	2e\	.	.	.
2D\	.	.	.	.	2f\	.	.	.
1E	.	.	1G	-rit	1g	.	1b-	-rit
*	*	*	*	*	*custos:g	*	*	*
!	!	!	!	!	!LO:LB:g=original	!	!	!
=189-	=189-	=189	=189-	=189	=189	=189	=189	=189
*col	*	*	*	*	*	*	*	*
1C	.	-rit	2c\	fi-	1g	-rit	0.a	fi-
.	.	.	2B-\	.	.	.	.	.
0D	.	fi-	2A\	.	1g	fi-	.	.
.	.	.	2G\	.	.	.	.	.
.	.	.	1A	.	1f#X	.	.	.
*Xcol	*	*	*custos:B	*	*	*	*	*
!	!	!	!LO:LB:g=original	!	!	!	!	!
=190-	=190-	=190	=190	=190	=190-	=190	=190-	=190
!	!	!	!LO:N:acc=#	!	!	!	!	!
0.GG	.	-niſ	0.Bn	-nis	0.g	-niſ	0.g	-nis
*	*	*Xij	*	*Xij	*	*Xij	*	*
=191	=191	=191	=191	=191	=191	=191	=191	=191
0G	.	Et	0B-X	Et	0d	Et	0g	Et
1D	.	in	1A	in	1d	in	1f	in
=192-	=192-	=192	=192	=192	=192	=192	=192	=192
1.G	.	ſpi-	1.B-	ſpi-	1.d	ſpi-	1.b-	ſpi-
2A\	.	-ri-	2c\	-ri-	2d\	-ri-	2b-\	-ri-
1B-	.	-tu(m)	1d	-tu(m)	1d	-tu(m)	(2f/	-tu(m)
.	.	.	.	.	.	.	2g/)	.
=193	=193	=193	=193-	=193	=193	=193	=193	=193
1.F	.	ſanc-	1.c	ſanc-	1.f	ſa(n)-	1.a	ſa(n)-
2E\	6	-tu(m)	2c\	-tu(m)	2g\	-ctu(m)	2cc\	-ctu(m)
!	!	!	!	!	!	!	!LO:N:acc=#	!
2G\	.	Do-	2d\	Do-	2g\	Do-	2bn\	Do-
2G\	.	-mi-	2d\	-mi-	2g\	-mi-	2b\	-mi-
=194-	=194-	=194	=194	=194	=194	=194	=194	=194
1C	.	-nu(m)	1c	-nu(m)	1e	-nu(m)	1cc,<	-nu(m)
1G	.	et	1d	et	1g	et	1b-X	et
1E-X	6	Vi-	1e-X	Vi-	1g	Vi-	1cc	Vi-
*custos:F	*	*	*	*	*	*	*	*
!LO:LB:g=original	!	!	!	!	!	!	!	!
=195	=195	=195	=195-	=195	=195	=195	=195	=195
1.F	.	-ui-	0c	-vi-	0f	-vi-	0a	-vi-
2E-X\	.	.	.	.	.	.	.	.
1D	6	.	1d	-fi-	1f	-fi-	1b-	-fi-
=196-	=196-	=196	=196	=196	=196	=196	=196-	=196
1E-X	.	-fi-	1B-	-can-	0g	-can-	(<1g	-can-
(<1C	6 5	-ca(n)-	2c\	.	.	.	1ee-X)	.
.	.	.	2B-\	.	.	.	.	.
1D)	#	.	1A	.	1f#X	.	1dd	.
=197	=197	=197	=197	=197	=197	=197	=197	=197
1GG,<	.	-te(m)	1G,<	-te(m)	1g	-te(m)	0dd	-tem
!	!	!	!	!	!LO:N:acc=-	!	!	!
1D	.	qui	1A	qui	1fn	qui	.	.
1G	.	ex	1B-,<	ex	1g	ex	1r	.
=198	=198	=198	=198	=198	=198	=198	=198	=198
0F	.	Pa-	1c	pa-	1a	Pa-	1r	.
.	.	.	1f	-tre	1a	-tre	1a	qui
1C	.	-tre	1e	ex	1g	ex	1cc	ex
=199	=199	=199	=199	=199	=199	=199	=199	=199
1D	.	fi-	1d	Pa-	1f	Pa-	1a	Pa-
2D/	.	-li-	1d	-tre	1f	-tre	1a	-tre
2AA/	.	-o-	.	.	.	.	.	.
1BB-	.	-q(ue)	2B-\	fi-	2f\	fi-	2g/	fi-
.	.	.	2B-\	-li-	2f\	-li-	2g/	-li-
*	*	*	*	*	*	*	*custos:a	*
!	!	!	!	!	!	!	!LO:PB:g=original	!
=200	=200	=200	=200	=200	=200	=200	=200	=200
1D	.	pro-	1A	-o-	1f	-o-	1a	-o-
(1BB-	.	-ce-	2B-\	-q(ue)	2f\	-q(ue)	2g\	-q(ue)
.	.	.	2d\	pro-	2f\	pro-	2g\	pro-
1C)	.	.	1c	-ce-	(<2f\	-ce-	1g	-ce-
.	.	.	.	.	2e\)	.	.	.
=201-	=201-	=201	=201	=201	=201	=201	=201	=201
1FF	.	-dit	1c,<	-dit	1f	-dit	1a,<	-dit
1F	.	qui	1c	qui	1f	qui	1a	qui
1BB-	.	Cu(m)	1B-	Cu(m)	1f	Cu(m)	1b-	Cu(m)
=202	=202	=202	=202	=202	=202	=202	=202	=202
0F	.	Pa-	0c	Pa-	0f	Pa-	0a	Pa-
1F	.	-tre	1c	-tre	1f	-tre	1a	-tre
*	*	*	*	*	*custos:f	*	*	*
!	!	!	!	!	!LO:PB:g=original	!	!	!
=203	=203	=203	=203	=203	=203	=203	=203	=203
1r	.	.	1r	.	1r	.	1r	.
*	*	*ij	*	*	*	*ij	*	*ij
1F	.	qui	1c	qui	1f	qui	1a	qui
1D	.	Cu(m)	1d	Cu(m)	1f	Cu(m)	1b-	Cu(m)
!	!	!	!LO:LB:g=original	!	!	!	!	!
=204	=204	=204	=204	=204	=204	=204	=204	=204
1C	.	Pa-	1e-X	Pa-	1g	Pa-	1cc	Pa-
1C	.	-tre	1e-	-tre	1g	-tre	1cc	-tre
*	*	*Xij	*	*	*	*Xij	*	*Xij
1E-X	.	et	1e-	et	1g	et	1cc	et
=205	=205	=205	=205	=205	=205	=205	=205	=205
(<0F	.	Fi-	0d	Fi-	0f	fi-	0cc	fi-
!	!	!	!	!	!	!	!LO:N:acc=#	!
2G\)	.	.	1d	-li-	1d	-li-	1bn	-li-
2G\	.	-li-	.	.	.	.	.	.
=206-	=206-	=206	=206-	=206	=206	=206	=206	=206
1C	.	-o	1c,<	-o	1e	-o	1cc	-o
1G	.	ſi-	1B-	ſi-	1r	.	1r	.
1G	.	-mul	1B-	-mul	1r	.	1r	.
=207	=207	=207	=207	=207	=207	=207	=207	=207
*	*	*ij	*	*ij	*	*	*	*
0.B-	.	ſi-	0.d	ſi-	1r	.	1r	.
.	.	.	.	.	1f	ſi-	1dd	ſi-
.	.	.	.	.	1f	-mul	1dd	-mul
=208-	=208-	=208	=208-	=208	=208	=208	=208	=208
*	*	*	*	*	*	*ij	*	*ij
0.F	.	-mul	0.A	-mul	0a	ſi-	0.ff	ſi-
.	.	.	.	.	1a	-mul	.	.
*	*	*	*	*Xij	*	*Xij	*	*
=209-	=209-	=209	=209	=209	=209	=209	=209-	=209
1.G	.	ſi-	0B-	a-	1.g	A-	1dd	-mul
*	*	*	*	*	*	*	*	*Xij
.	.	.	.	.	.	.	1dd	a-
2D\	.	-mul	.	.	2f\	-do-	.	.
*	*	*Xij	*	*	*	*	*	*
1E-X	.	a-	1B-	-do-	2e-y\	-ra-	1b-	-do-
.	.	.	.	.	2f\	.	.	.
=210-	=210-	=210	=210-	=210	=210	=210	=210	=210
*col	*	*	*	*	*	*	*	*
1C	.	-do-	0.A	-ra-	0g	.	1ee-X	-ra-
0D	.	-ra-	.	.	.	.	0dd	.
.	.	.	.	.	1f#X	.	.	.
*Xcol	*	*	*	*	*	*	*	*
!LO:LB:g=original	!	!	!	!	!	!	!	!
=211	=211	=211	=211-	=211	=211	=211	=211-	=211
1GG	.	-tur	1G	-tur	1g	-tur	0dd	-tur
1D	.	et	1r	.	1f	et	.	.
2E\	.	con-	1r	.	2g\	con-	1r	.
2E\	.	-glo-	.	.	2g\	-glo-	.	.
=212	=212	=212	=212	=212	=212	=212	=212	=212
1.F	.	-ri-	1r	.	1.a	-ri-	1r	.
.	.	.	1c	et	.	.	1a	et
2E\	.	-fi-	.	.	2g\	-fi-	.	.
1D	6	-ca-	2d\	co(n)glo-	1f	-ca-	2b-\	con-
.	.	.	2d\	-ri-	.	.	2b-\	-glo-
=213	=213	=213	=213	=213	=213	=213	=213	=213
1C,<	.	-tur	1.e	-fi-	1e	-tur	2cc\	-ri-
.	.	.	.	.	.	.	2cc\	-fi-
1C	.	qui	.	.	1e	qui	1cc	-ca-
.	.	.	2e\	-ca-	.	.	.	.
1D	.	lo-	1d	-tur	1f	lo-	1a	-tur
=214	=214	=214	=214	=214	=214	=214	=214	=214
1.BB-	.	-cu-	1d	qui	1.f	-cu-	1b-	qui
.	.	.	1d	lo-	.	.	1b-	lo-
2BB-/	.	-t(us)	.	.	2f\	-tus	.	.
1FF	.	eſt	1c	-cu-	1f	eſt	2a\	-cu-
.	.	.	.	.	.	.	2a\	-t(us)
!	!	!	!	!	!	!	!LO:LB:g=original	!
=215-	=215-	=215	=215	=215	=215	=215	=215	=215
1.BB-	.	Per	1.B-	-t(us)	1f	per	1.b-	eſt
.	.	.	.	.	(<2e\	.	.	.
2AA/	.	.	2B-\	eſt	2f\	.	2cc\	.
1GG	.	.	1B-	per	1g)	.	1dd	per
*	*	*	*	*	*custos:f	*	*	*
!	!	!	!	!	!LO:LB:g=original	!	!	!
=216-	=216-	=216	=216	=216	=216	=216	=216	=216
*col	*	*	*col	*	*col	*	*	*
1GG	.	Pro-	2B-\	Pro-	1f	Pro-	1dd	Pro-
.	.	.	2B-\	-phe-	.	.	.	.
0AA	.	-phe-	0A	.	0e	-phe-	1dd	-phe-
.	.	.	.	.	.	.	1cc#X	.
*Xcol	*	*	*Xcol	*	*Xcol	*	*	*
=217-	=217-	=217	=217	=217	=217	=217	=217-	=217
0D,<	.	-tas	0A,<	-tas	0d	-tas	0dd	-tas
1BB-	.	et	1B-	et	1f	et	1dd	et
=218	=218	=218	=218-	=218	=218	=218	=218	=218
0BB-	.	V-	0B-	U-	0f	U-	0dd	V-
1BB-	.	-na(m)	1B-	-na(m)	1f	-na(m)	1dd	-na(m)
!	!	!	!LO:PB:g=original	!	!	!	!	!
=219-	=219-	=219	=219	=219	=219	=219	=219-	=219
1F	.	ſa(n)-	1A	ſanc-	1f	ſanc-	1cc	ſanc-
1F	.	-cta(m)	1A	-ta(m)	1f	-ta(m)	1cc	-ta(m)
1D	.	Ca-	1B-	Ca-	1f	Ca-	1dd	Ca-
=220	=220	=220	=220	=220	=220	=220	=220	=220
1.E-X	.	-tho-	1.B-	-tho-	1.g	-tho-	1.b-	-tho-
2D\	.	-li-	2B-\	-li-	2g\	-li-	2b-\	-li-
1C	.	-ca(m)	1e-X	-ca(m)	1a	-ca(m)	1cc	-ca(m)
=221	=221	=221	=221	=221	=221	=221	=221-	=221
1D	.	et	1d	et	1f	et	1a	et
1D	.	A-	1d	A-	1f	A-	1a	A-
1AA	.	-po-	1c	-po-	1f	-po-	1cc	-po-
=222	=222	=222	=222-	=222	=222	=222	=222	=222
1.BB-	.	-ſto-	1.d	-ſto-	1.d	-ſto-	1.b-	-ſto-
2AA/	.	-li-	2d\	-li-	2d\	-li-	2b-\	-li-
1GG	.	-ca(m)	1B-	-ca(m)	2e\	-ca(m)	1b-,<	-ca(m),
.	.	.	.	.	2f\	Ec-	.	.
=223	=223	=223	=223	=223	=223-	=223	=223-	=223
1BB-	.	Ec-	1d	Ec-	0g	-cle-	1b-	Ec-
1C	.	-cle-	1e	-cle-	.	.	1.a	-cle-
2D\	.	.	2d\	.	1f#X	-ſi-	.	.
2D\	.	-ſi-	2d\	-ſi-	.	.	2a\	-ſi-
=224	=224	=224	=224-	=224	=224	=224	=224	=224
0GG,<	.	-am	0d,<	-am	0g,<	-a(m)	0g	-a(m)
1G	.	Con-	1d	Con-	1d	Con-	1b-	Con-
*custos:G	*	*	*	*	*	*	*	*
!LO:PB:g=original	!	!	!	!	!	!	!	!
=225	=225	=225	=225	=225	=225-	=225	=225-	=225
0G	6 4 2	-fi-	0c	-fi-	0e-X	-fi-	0a	-fi-
1F#X	7 5 3	-te-	1c	-te-	1e-	-te-	1a	-te-
=226	=226	=226	=226-	=226	=226	=226	=226	=226
1G	.	-or	1B-,<	-or	1d	-or	1b-	-or
1D	.	V-	1d	V-	1f	V-	1a	U-
1A	.	-nu(m)	1c	-nu(m)	1en	-nu(m)	1a	-nu(m)
=227	=227	=227	=227	=227	=227	=227	=227-	=227
*	*	*ij	*	*ij	*	*ij	*	*ij
0E	.	V-	0en	V-	0g	V-	1b-	U-
.	.	.	.	.	.	.	1cc#X	.
1F	.	-nu(m)	1d	-nu(m)	1f	-nu(m)	1dd	-nu(m)
*	*	*Xij	*	*Xij	*	*Xij	*	*Xij
=228-	=228-	=228	=228	=228	=228	=228	=228	=228
*col	*	*	*	*	*col	*	*	*
1G	.	Bap-	1d	Bap-	1e	Bap-	1b-X	Bap-
0A	.	-ti-	1d	-tiſ-	0e	-tiſ-	0a	-tiſ-
.	.	.	1c#X	.	.	.	.	.
*Xcol	*	*	*	*	*Xcol	*	*	*
=229	=229	=229	=229-	=229	=229	=229	=229-	=229
1D	.	-ſma	0d	-ma	1d	-ma	0a	-ma
2D/	.	in	.	.	2f\	in	.	.
2D/	.	re-	.	.	2f\	re-	.	.
2AA/	.	-miſ-	1r	.	2c/	-miſ-	1r	.
2BB-/	.	-si-	.	.	2d/	-si-	.	.
*	*	*	*	*	*custos:e	*	*	*
!	!	!	!	!	!LO:LB:g=original	!	!LO:LB:g=original	!
=230	=230	=230	=230	=230	=230	=230	=230	=230
0.C	.	-o-	0.r	.	0e	-o-	1r	.
.	.	.	.	.	.	.	2cc\	in
.	.	.	.	.	.	.	2cc\	re-
.	.	.	.	.	1e	-ne(m)	2g\	-miſ-
.	.	.	.	.	.	.	2a\	-si-
=231-	=231-	=231	=231-	=231	=231	=231	=231	=231
*	*	*	*	*	*	*ij	*	*
1GG	.	-ne(m)	1r	.	2g\	in	0.b-	-o-
.	.	.	.	.	2g\	re-	.	.
*	*	*ij	*	*	*	*	*	*
2G\	.	in	1r	.	2d\	-miſ-	.	.
2G\	.	re-	.	.	2e\	-si-	.	.
*	*	*	*col	*	*	*	*	*
2D\	.	-miſ-	1.d	in	1f	-o-	.	.
2E\	.	-si-	.	.	.	.	.	.
=232	=232	=232	=232	=232	=232	=232	=232-	=232
0.F	.	-o-	.	.	1f	-ne(m)	0a	-ne(m)
.	.	.	2d\	re-	.	.	.	.
.	.	.	2A\	-miſ-	2f\	in	.	.
.	.	.	2B-\	-si-	2f\	re-	.	.
*	*	*	*	*	*	*	*	*ij
!	!	!	!LO:TX:t=P:problem:przekreślona synkopowana wartość	!	!	!	!	!
.	.	.	0c	-o-	2c\	-miſ-	2a\	in
.	.	.	.	.	2d\	-si-	2a\	re-
=233-	=233-	=233	=233-	=233	=233	=233	=233	=233
0.C	.	-ne(m)	.	.	0e	-o-	2e/	-miſ-
.	.	.	.	.	.	.	2f/	-si-
.	.	.	1G	-ne(m)	.	.	0g	-o-
*	*	*Xij	*custos:c	*	*	*	*	*
!	!	!	!LO:LB:g=original	!	!	!	!	!
!	!	!	!LO:TX:t=P:problem:przekreślona synkopowana wartość	!	!	!	!	!
.	.	.	0c	pec-	1e	-ne(m)	.	.
*	*	*	*	*	*	*Xij	*	*
=234-	=234-	=234	=234-	=234	=234	=234	=234	=234
*	*	*	*	*	*col	*	*	*
0F	.	pec-	.	.	0f	pec-	1f	-ne(m)
*	*	*	*	*	*	*	*	*Xij
.	.	.	1B-	-ca-	.	.	(<2a\	pec-
.	.	.	.	.	.	.	2b-\)	.
1E-y	.	-ca-	0e-X	-to-	0g	-ca-	1cc	.
=235	=235	=235	=235-	=235	=235-	=235	=235	=235
0.G	.	-to-	.	.	.	.	1cc	-ca-
.	.	.	2d\	.	0d	-to-	(<1cc	-to-
.	.	.	2c\	.	.	.	.	.
!	!	!	!	!	!	!	!LO:N:acc=#	!
.	.	.	1d	.	.	.	1bn)	.
*	*	*	*Xcol	*	*Xcol	*	*	*
=236-	=236-	=236	=236	=236	=236-	=236	=236-	=236
1C,<	.	-ru(m)	1c,<	-ru(m)	0e	-ru(m)	1cc,<	-ru(m)
1C	.	et	1e	et	.	.	1cc	et
1C	.	ex-	1e	ex-	1r	.	1cc	ex-
=237	=237	=237	=237-	=237	=237	=237	=237	=237
0G	.	-pec-	0d	-pec-	1r	.	1b-	-pec-
.	.	.	.	.	1d	et	1b-	-to
1G	.	-to	1d	-to	1d	ex-	2g\	re-
.	.	.	.	.	.	.	2a\	-ſur-
=238-	=238-	=238	=238	=238	=238-	=238	=238	=238
1.E-X	.	re-	1r	.	0e-X	-pec-	1.b-	-rec-
.	.	.	1r	.	.	.	.	.
2F\	.	-ſur-	.	.	.	.	2a\	-ti-
*	*	*	*col	*	*	*	*	*
2G\	.	-rec-	1.B-	re-	1e-	-to	1g	-o-
2A\	.	-ti-	.	.	.	.	.	.
*custos:B	*	*	*	*	*	*	*	*
!LO:LB:g=original	!	!	!	!	!	!	!	!
=239	=239	=239	=239	=239	=239	=239	=239	=239
0B-	.	-o-	.	.	1.d	re-	1f,<	-ne(m)
.	.	.	2c\	-ſur-	.	.	.	.
.	.	.	2d\	-rec-	.	.	1f	Mor-
.	.	.	2e\	-ti-	2c\	-ſur-	.	.
1B-	.	-ne(m)	0f	-o-	2d\	-rec-	1g	-tu-
.	.	.	.	.	2e\	-ti-	.	.
=240	=240	=240	=240-	=240	=240-	=240	=240-	=240
0F	.	mor-	.	.	0f	-o-	0a-X	-o-
.	.	.	1c	-nem	.	.	.	.
*	*	*	*Xcol	*	*	*	*	*
1G	.	-tu-	1r	.	1f	-ne(m)	2g/	.
.	.	.	.	.	.	.	2f/	.
=241-	=241-	=241	=241	=241	=241	=241	=241-	=241
0.A-X	.	-o-	1r	.	1r	.	0e-X	-ru(m)
.	.	.	1c	mor-	1e-X	mor-	.	.
.	.	.	1d	-tu-	1f	-tu-	1r	.
=242-	=242-	=242	=242	=242	=242	=242	=242	=242
0.G	.	.	1e-X	-o-	1g	-o-	00.r	.
.	.	.	2d\	.	2f\	.	.	.
.	.	.	2c\	.	2e\	.	.	.
!	!	!	!LO:N:acc=#	!	!	!	!	!
.	.	.	1Bn	.	1d	.	.	.
=243	=243	=243	=243	=243	=243	=243	=243-	=243
1C,<	.	-ru(m)	1c	-ru(m)	1e	-ru(m)	.	.
*	*	*ij	*	*	*	*	*	*
1C	.	mor-	1r	.	1e	mor-	.	.
1D	.	-tu-	1r	.	1f	-tu-	.	.
=244-	=244-	=244	=244	=244	=244	=244	=244-	=244
0.E-X	.	-o-	1r	.	0.g	-o-	1r	.
*	*	*	*	*ij	*	*	*	*ij
.	.	.	1B-	mor-	.	.	1g	Mor-
.	.	.	1c	-tu-	.	.	1a	-tu-
*	*	*	*	*	*custos:g	*	*	*
!	!	!	!	!	!LO:LB:g=original	!	!	!
=245-	=245-	=245	=245	=245	=245	=245	=245	=245
0.D	.	.	1d	-o-	0g	.	1b-	-o-
.	.	.	2c\	.	.	.	2a/	.
.	.	.	2B-\	.	.	.	2g/	.
.	.	.	1A	.	1f#X	.	1a	.
!	!	!	!	!	!	!	!LO:LB:g=original	!
=246-	=246-	=246	=246	=246	=246	=246	=246	=246
0GG,<	.	-ru(m)	0B-	-ru(m)	0g,<	-ru(m)	0g	-ru(m)
*	*	*Xij	*	*Xij	*	*	*	*Xij
1G	.	Et	1d	et	1g	et	1b-	Et
=247	=247	=247	=247	=247	=247	=247	=247	=247
1G	.	Vi-	1d	Vi-	1g	Vi-	1b-	Vi-
1G	.	-ta(m)	1d	-ta(m)	1g	-ta(m)	1b-	-ta(m)
1D	.	Ven-	1d	Ve(n)-	1f#X	Ve(n)-	1a	Ve(n)-
*	*	*	*custos:d	*	*	*	*	*
!	!	!	!LO:LB:g=original	!	!	!	!	!
=248	=248	=248	=248	=248	=248	=248	=248	=248
1.G	.	-tu-	1.d	-tu-	0g	-tu-	(<1.b-	-tu-
2A\	.	.	2c\	.	.	.	2cc\)	.
!	!	!	!	!	!LO:N:acc=-	!	!	!
1B-	.	.	1B-	.	1fn	-ro	1dd	-ri
=249-	=249-	=249	=249	=249	=249	=249	=249	=249
1F	.	-ri	1d	-ri	1f	ſae-	1cc	ſae-
1.G	.	ſae-	1.d	ſae-	1.d	.	1.b-	-cu-
2G\	.	-cu-	2d\	-cu-	2e\	-cu-	2b-\	-li
=250	=250	=250	=250	=250	=250	=250	=250-	=250
0D,<	.	-li	0d	-li	0f,<	-li	0a	et
*	*	*ij	*	*ij	*	*	*	*
1B-	.	et	1d	et	1f	et	1dd	Vi-
=251	=251	=251	=251	=251	=251	=251	=251	=251
1B-	.	Vi-	1.B-	Vi-	1f	Vi-	1dd	-ta(m)
1B-	.	-ta(m)	.	.	1f	-ta(m)	1dd	Ve(n)-
.	.	.	2B-\	-ta(m)	.	.	.	.
1F#X	.	Ven-	1A	Ve(n)-	1a	Ve(n)-	1cc	-tu-
=252	=252	=252	=252	=252	=252	=252	=252	=252
1G	.	-tu-	1B-	-tu-	1g	-tu-	1b-	-ri
*	*	*	*	*	*	*	*	*ij
1G	.	-ri	1B-	-ri	1g	-ri	1b-	et
*	*	*Xij	*	*	*	*	*	*
1D	.	Ve(n)-	1d	Ve(n)-	1f	Ven-	1a	Vi-
=253-	=253-	=253	=253	=253	=253-	=253	=253	=253
1.E-X	.	-tu-	1.B-	-tu-	2e-X\	-tu-	1.g	-ta(m)
.	.	.	.	.	2d\	.	.	.
.	.	.	.	.	2e-\	.	.	.
2D\	.	.	4c\	.	2f\	.	4a\	Ve(n)-
.	.	.	4d\	.	.	.	4b-\	.
1C	.	.	1e-X	.	1g	.	1cc	-tu-
*custos:BB	*	*	*	*	*	*	*	*
!LO:LB:g=original	!	!	!	!	!	!	!	!
=254	=254	=254	=254	=254	=254	=254	=254	=254
1BB-	.	-ri	1d	-ri	1g	-ri	1dd	-ri
*	*	*	*	*	*	*	*	*Xij
1.D	.	ſae-	1.d	ſae-	1.g	ſae-	1.a	ſae-
2D\	.	-cu-	2d\	-cu-	2f#X\	-cu-	2a\	-cu-
=255-	=255-	=255	=255-	=255	=255	=255	=255-	=255
1GG,<	.	-li	0d	-li	1g,<	-li	1g	-li
*	*	*	*	*Xij	*	*	*	*
1D	.	A-	.	.	1f	A-	1r	.
1E	.	-me(n)	1r	.	1g	.	1r	.
=256	=256	=256	=256	=256	=256	=256	=256	=256
0.F	.	A-	1r	.	1.a	.	1r	.
.	.	.	1c	A-	.	.	1a	A-
.	.	.	.	.	2g\	.	.	.
.	.	.	1d	.	1f	.	1b-	-me(n)
=257-	=257-	=257	=257-	=257	=257-	=257	=257	=257
!	!	!	!	!	!LO:TX:t=P:problem:♭ above	!	!	!
0.C	.	-me(n)	0e-X	-me(n)	0e-X	.	1.cc	A-
.	.	.	.	.	.	.	2dd\	.
*	*	*	*	*ij	*	*	*	*
.	.	.	(<1e-	A-	1e-	-me(n)	2b-\	.
.	.	.	.	.	.	.	2cc\	.
=258	=258	=258	=258	=258	=258	=258	=258	=258
*	*	*ij	*	*	*	*	*	*
1.D	.	A-	0d	.	2f\	A-	2a\	.
.	.	.	.	.	2e\	.	2g\	.
.	.	.	.	.	2f\	.	2a\	.
2C/	.	.	.	.	2g\	.	2b-\	.
1AA	.	.	1c	.	1a	.	1cc	.
*	*	*	*	*	*custos:f	*	*	*
!	!	!	!	!	!LO:LB:g=original	!	!	!
=259-	=259-	=259	=259	=259	=259	=259	=259	=259
1BB-	.	.	0d	.	0f	.	1.b-	.
1GG	.	.	.	.	.	.	.	.
.	.	.	.	.	.	.	2a\	.
1C	.	.	1c	.	1e	.	1g	.
*	*	*	*	*	*	*	*custos:a	*
!	!	!	!	!	!	!	!LO:LB:g=original	!
=260	=260	=260	=260	=260	=260	=260	=260	=260
1FF	.	-me(n)	1c)	-me(n)	1f	-me(n)	1a	-me(n)
*	*	*Xij	*	*Xij	*	*ij	*	*ij
1BB-	.	A-	1B-	A-	1f	A-	1dd	A-
1BB-	.	-me(n)	1B-	-me(n)	1f	-me(n)	1dd	-me(n)
*	*	*	*	*	*	*	*	*Xij
=261	=261	=261	=261	=261	=261	=261	=261	=261
*	*	*ij	*	*	*	*	*	*
0F	.	A-	0A	A-	0f	A-	1.cc	A-
.	.	.	.	.	.	.	4b-\	.
.	.	.	.	.	.	.	4cc\	.
1D	.	-me(n)	1B-	-me(n)	1f	-me(n)	1dd	.
*	*	*Xij	*custos:B	*	*	*Xij	*	*
!	!	!	!LO:LB:g=original	!	!	!	!	!
=262	=262	=262	=262	=262	=262	=262	=262	=262
*	*	*	*col	*ij	*	*	*	*
1.E-X	.	A-	2B-\	A-	1.g	A-	1.b-	.
.	.	.	2A\	.	.	.	.	.
.	.	.	1G	.	.	.	.	.
2D\	.	.	.	.	4f\	.	4a\	.
.	.	.	.	.	4g\	.	4b-\	.
1C	.	.	1G	.	2a\	.	1cc	.
.	.	.	.	.	2g\	.	.	.
*	*	*	*Xcol	*	*	*	*	*
=263	=263	=263	=263	=263	=263	=263	=263	=263
*	*	*	*	*	*	*	*col	*
1.D	.	.	2d\	-me(n)	2f\	.	0a	.
.	.	.	2A\	A-	2e\	.	.	.
.	.	.	2B-\	.	1.d	.	.	.
2C/	.	.	2c\	.	.	.	.	.
2BB-/	6	.	1d	.	.	.	0b-	.
2AA/	.	.	.	.	4e\	.	.	.
.	.	.	.	.	4f\	.	.	.
=264-	=264-	=264	=264	=264	=264	=264	=264-	=264
1GG	.	.	0.d	-me(n)	0g	.	.	.
0D	4	.	.	.	.	.	0a	.
.	#	.	.	.	1f#X	.	.	.
*	*	*	*	*Xij	*	*	*Xcol	*
=265	=265	=265	=265	=265	=265	=265	=265	=265
!	!	!	!LO:N:acc=#	!	!	!	!	!
1GG,<	.	-me(n)	1Bn	.	1g	-me(n)	1g	-me(n)
*	*	*	*	*	*	*ij	*	*ij
*	*	*ij	*	*	*	*	*	*
1C	.	A-	1G	A-	1g	A-	1ee-X	A-
!LO:N:acc=#	!	!	!	!	!	!	!	!
1BBn	6	-me(n)	1G	-me(n)	1d	-me(n)	[<1dd	-me(n)
=266-	=266-	=266	=266	=266	=266	=266	=266	=266
*	*	*	*	*ij	*	*	*	*
0.C	9	A-	0.G	A-	0.e-X	A-	1dd]	.
.	8	.	.	.	.	.	2cc\	A-
.	.	.	.	.	.	.	2b-\	.
.	.	.	.	.	.	.	1cc	.
=267-	=267-	=267	=267-	=267	=267-	=267	=267-	=267
!	!	!	!	!	!	!	!LO:N:acc=#	!
0GGl;<	.	-me(n)	0Gl;;	-me(n)	0dl;;	-me(n)	0bnl;;	-me(n)
*	*	*Xij	*	*Xij	*	*Xij	*	*Xij
==	==	==	==	==	==	==	==	==
*-	*-	*-	*-	*-	*-	*-	*-	*-
!!!system-decoration: [(*)]
!!!RDF**kern: > = above
!!!RDF**kern: < = below
!!!RDF**kern: l = terminal long
!!!ENC: Mateusz Solarz
!!!END: 2022-04-28
!!!ENC: Andrzej Kubiczek
!!!END: 2022-05-17
!!!YEC: Copyright 2022 Narodowy Instytut Fryderyka Chopina (https://polishscores.org)
!!!YEM: Licence CC BY 4.0 (https://creativecommons.org/licenses/by/4.0)
